G17 G90 G40 G21
G0 Z5
G0 X0 Y0
(Start operation: ToolChangeOperation)
M1 (1/8 2f Carbide)
G17 G90 G40 G21
(End operation: ToolChangeOperation)
(Start operation: Contour)
(Start cutpath)
G0 Z5
G0 X295.362 Y38.421
(Start enter cut at -3.0)
G0 Z1
F152.97
(Start helical move from 1.000 to -3.000)
G1 X295.362 Y38.421
G2 X295.421 Y37.471 Z0.701 I0.029 J-0.475
G2 X295.362 Y38.421 Z0.402 I-0.029 J0.475
G1 X295.362 Y38.421
G2 X295.421 Y37.471 Z0.103 I0.029 J-0.475
G2 X295.362 Y38.421 Z-0.197 I-0.029 J0.475
G1 X295.362 Y38.421
G2 X295.421 Y37.471 Z-0.496 I0.029 J-0.475
G2 X295.362 Y38.421 Z-0.795 I-0.029 J0.475
G1 X295.362 Y38.421
G2 X295.421 Y37.471 Z-1.094 I0.029 J-0.475
G2 X295.362 Y38.421 Z-1.393 I-0.029 J0.475
G1 X295.362 Y38.421
G2 X295.421 Y37.471 Z-1.692 I0.029 J-0.475
G2 X295.362 Y38.421 Z-1.991 I-0.029 J0.475
G1 X295.362 Y38.421
G2 X295.421 Y37.471 Z-2.291 I0.029 J-0.475
G2 X295.362 Y38.421 Z-2.59 I-0.029 J0.475
G1 X295.362 Y38.421
G2 X295.421 Y37.471 Z-2.795 I0.029 J-0.475
G2 X295.362 Y38.421 Z-3 I-0.029 J0.475
G1 X295.362 Y38.421
G2 X295.421 Y37.471 Z-3 I0.029 J-0.475
G2 X295.362 Y38.421 Z-3 I-0.029 J0.475
G1 Z-3
(End helical move)
F300.00
(End enter cut)
(Start subpath)
G2 X295.421 Y37.471 I0.029 J-0.475
G2 X295.362 Y38.421 I-0.029 J0.475
G2 X295.523 Y38.432 I1.496 J-20.976
G2 X295.599 Y37.483 I0.038 J-0.475
G2 X295.523 Y38.432 I-0.038 J0.475
G2 X295.689 Y38.447 I2.744 J-29.76
G2 X295.789 Y37.499 I0.05 J-0.474
G2 X295.689 Y38.447 I-0.05 J0.474
G2 X295.844 Y38.465 I2.98 J-24.491
G2 X295.961 Y37.52 I0.058 J-0.473
G2 X295.844 Y38.465 I-0.058 J0.473
G3 X296.006 Y38.488 I-1.405 J10.579
G2 X296.155 Y37.548 I0.075 J-0.47
G2 X296.006 Y38.488 I-0.075 J0.47
G2 X296.167 Y38.515 I2.879 J-16.987
G2 X296.331 Y37.577 I0.082 J-0.469
G2 X296.167 Y38.515 I-0.082 J0.469
G3 X296.329 Y38.547 I-2.316 J12.163
G2 X296.516 Y37.612 I0.093 J-0.467
G2 X296.329 Y38.547 I-0.093 J0.467
G3 X296.485 Y38.581 I-1.408 J6.819
G2 X296.672 Y37.647 I0.093 J-0.467
G2 X296.485 Y38.581 I-0.093 J0.467
G3 X296.635 Y38.618 I-1.207 J5.182
G2 X296.851 Y37.69 I0.108 J-0.464
G2 X296.635 Y38.618 I-0.108 J0.464
G3 X296.797 Y38.662 I-1.207 J4.796
G2 X297.034 Y37.739 I0.119 J-0.461
G2 X296.797 Y38.662 I-0.119 J0.461
G2 X296.937 Y38.702 I1.289 J-4.23
G2 X297.176 Y37.78 I0.12 J-0.461
G2 X296.937 Y38.702 I-0.12 J0.461
G3 X297.034 Y38.733 I-0.837 J2.769
G2 X297.356 Y37.836 I0.161 J-0.448
G2 X297.034 Y38.733 I-0.161 J0.448
G2 X297.186 Y38.784 I8.329 J-24.449
G2 X297.494 Y37.883 I0.154 J-0.451
G2 X297.186 Y38.784 I-0.154 J0.451
G3 X297.339 Y38.841 I-1.067 J3.122
G2 X297.651 Y37.94 I0.156 J-0.45
G2 X297.339 Y38.841 I-0.156 J0.45
G3 X297.471 Y38.893 I-1.017 J2.773
G2 X297.81 Y38.002 I0.169 J-0.445
G2 X297.471 Y38.893 I-0.169 J0.445
G3 X297.591 Y38.942 I-0.844 J2.247
G2 X297.965 Y38.066 I0.187 J-0.438
G2 X297.591 Y38.942 I-0.187 J0.438
G2 X297.739 Y39.007 I1.316 J-2.772
G2 X298.128 Y38.137 I0.195 J-0.435
G2 X297.739 Y39.007 I-0.195 J0.435
G3 X297.889 Y39.079 I-1.676 J3.685
G2 X298.287 Y38.213 I0.199 J-0.433
G2 X297.889 Y39.079 I-0.199 J0.433
G2 X297.996 Y39.132 I19.171 J-38.617
G2 X298.422 Y38.28 I0.213 J-0.426
G2 X297.996 Y39.132 I-0.213 J0.426
G2 X298.113 Y39.193 I44.412 J-85.708
G2 X298.564 Y38.353 I0.226 J-0.42
G2 X298.113 Y39.193 I-0.226 J0.42
G3 X298.272 Y39.283 I-2.696 J4.963
G2 X298.735 Y38.45 I0.231 J-0.417
G2 X298.272 Y39.283 I-0.231 J0.417
G3 X298.403 Y39.356 I-15.155 J26.954
G2 X298.894 Y38.54 I0.245 J-0.408
G2 X298.403 Y39.356 I-0.245 J0.408
G2 X298.537 Y39.442 I8.484 J-13.188
G2 X299.046 Y38.636 I0.255 J-0.403
G2 X298.537 Y39.442 I-0.255 J0.403
G3 X298.676 Y39.531 I-2.194 J3.547
G2 X299.194 Y38.732 I0.259 J-0.4
G2 X298.676 Y39.531 I-0.259 J0.4
G3 X298.795 Y39.615 I-3.326 J4.91
G2 X299.341 Y38.833 I0.273 J-0.391
G2 X298.795 Y39.615 I-0.273 J0.391
G3 X298.93 Y39.712 I-1.357 J2.014
G2 X299.5 Y38.949 I0.285 J-0.382
G2 X298.93 Y39.712 I-0.285 J0.382
G2 X299.033 Y39.789 I3.137 J-4.102
G2 X299.585 Y39.013 I0.276 J-0.388
G2 X299.033 Y39.789 I-0.276 J0.388
G2 X299.123 Y39.861 I4.21 J-5.215
G2 X299.719 Y39.118 I0.298 J-0.371
G2 X299.123 Y39.861 I-0.298 J0.371
G2 X299.247 Y39.962 I3.989 J-4.702
G2 X299.853 Y39.229 I0.303 J-0.367
G2 X299.247 Y39.962 I-0.303 J0.367
G3 X299.362 Y40.062 I-6.485 J7.638
G2 X299.963 Y39.323 I0.3 J-0.369
G2 X299.362 Y40.062 I-0.3 J0.369
G3 X299.471 Y40.161 I-1.622 J1.894
G2 X300.096 Y39.442 I0.313 J-0.359
G2 X299.471 Y40.161 I-0.313 J0.359
G2 X299.575 Y40.262 I32.695 J-33.81
G2 X300.24 Y39.579 I0.332 J-0.341
G2 X299.575 Y40.262 I-0.332 J0.341
G2 X299.681 Y40.365 I2.286 J-2.232
G2 X300.334 Y39.671 I0.326 J-0.347
G2 X299.681 Y40.365 I-0.326 J0.347
G3 X299.771 Y40.458 I-4.144 J4.086
G2 X300.445 Y39.784 I0.337 J-0.337
G2 X299.771 Y40.458 I-0.337 J0.337
G3 X299.867 Y40.56 I-1.868 J1.857
G2 X300.573 Y39.921 I0.353 J-0.32
G2 X299.867 Y40.56 I-0.353 J0.32
G3 X299.978 Y40.685 I-1.34 J1.304
G2 X300.691 Y40.054 I0.356 J-0.316
G2 X299.978 Y40.685 I-0.356 J0.316
G3 X300.08 Y40.805 I-5.528 J4.811
G2 X300.791 Y40.171 I0.355 J-0.317
G2 X300.08 Y40.805 I-0.355 J0.317
G3 X300.167 Y40.912 I-20.873 J16.961
G2 X300.91 Y40.317 I0.372 J-0.298
G2 X300.167 Y40.912 I-0.372 J0.298
G3 X300.26 Y41.032 I-1.569 J1.314
G2 X301.032 Y40.475 I0.386 J-0.279
G2 X300.26 Y41.032 I-0.386 J0.279
G2 X300.372 Y41.185 I18.173 J-13.212
G2 X301.149 Y40.634 I0.388 J-0.276
G2 X300.372 Y41.185 I-0.388 J0.276
G3 X300.464 Y41.317 I-4.712 J3.352
G2 X301.243 Y40.77 I0.39 J-0.274
G2 X300.464 Y41.317 I-0.39 J0.274
G3 X300.549 Y41.448 I-3.73 J2.534
G2 X301.341 Y40.918 I0.396 J-0.265
G2 X300.549 Y41.448 I-0.396 J0.265
G3 X300.62 Y41.56 I-6.796 J4.353
G2 X301.434 Y41.066 I0.407 J-0.247
G2 X300.62 Y41.56 I-0.407 J0.247
G3 X300.7 Y41.695 I-8.901 J5.381
G2 X301.534 Y41.235 I0.417 J-0.23
G2 X300.7 Y41.695 I-0.417 J0.23
G3 X300.788 Y41.852 I-63.647 J35.808
G2 X301.628 Y41.403 I0.42 J-0.225
G2 X300.788 Y41.852 I-0.42 J0.225
G3 X300.868 Y42.006 I-3.205 J1.773
G2 X301.707 Y41.554 I0.42 J-0.226
G2 X300.868 Y42.006 I-0.42 J0.226
G3 X300.934 Y42.139 I-9.752 J4.937
G2 X301.787 Y41.713 I0.426 J-0.213
G2 X300.934 Y42.139 I-0.426 J0.213
G3 X301.008 Y42.298 I-3.201 J1.583
G2 X301.869 Y41.888 I0.43 J-0.205
G2 X301.008 Y42.298 I-0.43 J0.205
G2 X301.072 Y42.441 I15.602 J-6.851
G2 X301.927 Y42.021 I0.428 J-0.21
G2 X301.072 Y42.441 I-0.428 J0.21
G3 X301.116 Y42.547 I-24.399 J10.08
G2 X301.993 Y42.177 I0.439 J-0.185
G2 X301.116 Y42.547 I-0.439 J0.185
G3 X301.174 Y42.701 I-419.987 J158.638
G2 X302.051 Y42.331 I0.439 J-0.185
G2 X301.174 Y42.701 I-0.439 J0.185
G3 X301.219 Y42.824 I-8.011 J3.048
G2 X302.106 Y42.476 I0.443 J-0.174
G2 X301.219 Y42.824 I-0.443 J0.174
G2 X301.264 Y42.954 I4.047 J-1.311
G2 X302.171 Y42.664 I0.454 J-0.145
G2 X301.264 Y42.954 I-0.454 J0.145
G3 X301.316 Y43.127 I-3.393 J1.111
G2 X302.228 Y42.853 I0.456 J-0.137
G2 X301.316 Y43.127 I-0.456 J0.137
G3 X301.361 Y43.284 I-14.384 J4.288
G2 X302.275 Y43.015 I0.457 J-0.134
G2 X301.361 Y43.284 I-0.457 J0.134
G3 X301.398 Y43.43 I-5.158 J1.377
G2 X302.324 Y43.205 I0.463 J-0.113
G2 X301.398 Y43.43 I-0.463 J0.113
G2 X301.438 Y43.594 I91.284 J-22.221
G2 X302.369 Y43.395 I0.466 J-0.099
G2 X301.438 Y43.594 I-0.466 J0.099
G2 X301.471 Y43.76 I9.26 J-1.724
G2 X302.405 Y43.573 I0.467 J-0.093
G2 X301.471 Y43.76 I-0.467 J0.093
G3 X301.496 Y43.901 I-44.853 J8.212
G2 X302.437 Y43.745 I0.47 J-0.078
G2 X301.496 Y43.901 I-0.47 J0.078
G3 X301.523 Y44.067 I-27.899 J4.504
G2 X302.465 Y43.929 I0.471 J-0.069
G2 X301.523 Y44.067 I-0.471 J0.069
G2 X301.544 Y44.235 I47.206 J-5.993
G2 X302.489 Y44.117 I0.473 J-0.059
G2 X301.544 Y44.235 I-0.473 J0.059
G3 X301.56 Y44.389 I-3.495 J0.428
G2 X302.508 Y44.296 I0.474 J-0.047
G2 X301.56 Y44.389 I-0.474 J0.047
G3 X301.574 Y44.565 I-2.852 J0.317
G2 X302.523 Y44.481 I0.475 J-0.042
G2 X301.574 Y44.565 I-0.475 J0.042
G3 X301.582 Y44.682 I-5.079 J0.408
G2 X302.532 Y44.603 I0.475 J-0.039
G2 X301.582 Y44.682 I-0.475 J0.039
G2 X301.586 Y44.806 I7.209 J-0.158
G2 X302.538 Y44.77 I0.476 J-0.018
G2 X301.586 Y44.806 I-0.476 J0.018
G3 X301.588 Y44.963 I-5.734 J0.15
G2 X302.54 Y44.963 I0.476 J0
G2 X301.588 Y44.963 I-0.476 J0
G1 X301.588 Y45.154
G2 X302.54 Y45.154 I0.476 J0
G2 X301.588 Y45.154 I-0.476 J0
G1 X301.588 Y45.344
G2 X302.54 Y45.344 I0.476 J0
G2 X301.588 Y45.344 I-0.476 J0
G1 X301.588 Y45.535
G2 X302.54 Y45.535 I0.476 J0
G2 X301.588 Y45.535 I-0.476 J0
G1 X301.588 Y45.725
G2 X302.54 Y45.725 I0.476 J0
G2 X301.588 Y45.725 I-0.476 J0
G1 X301.588 Y45.916
G2 X302.54 Y45.916 I0.476 J0
G2 X301.588 Y45.916 I-0.476 J0
G1 X301.588 Y46.106
G2 X302.54 Y46.106 I0.476 J0
G2 X301.588 Y46.106 I-0.476 J0
G1 X301.588 Y46.297
G2 X302.54 Y46.297 I0.476 J0
G2 X301.588 Y46.297 I-0.476 J0
G1 X301.588 Y46.487
G2 X302.54 Y46.487 I0.476 J0
G2 X301.588 Y46.487 I-0.476 J0
G1 X301.588 Y46.678
G2 X302.54 Y46.678 I0.476 J0
G2 X301.588 Y46.678 I-0.476 J0
G1 X301.588 Y46.868
G2 X302.54 Y46.868 I0.476 J0
G2 X301.588 Y46.868 I-0.476 J0
G1 X301.588 Y47.059
G2 X302.54 Y47.059 I0.476 J0
G2 X301.588 Y47.059 I-0.476 J0
G1 X301.588 Y47.249
G2 X302.54 Y47.249 I0.476 J0
G2 X301.588 Y47.249 I-0.476 J0
G1 X301.588 Y47.44
G2 X302.54 Y47.44 I0.476 J0
G2 X301.588 Y47.44 I-0.476 J0
G1 X301.588 Y47.63
G2 X302.54 Y47.63 I0.476 J0
G2 X301.588 Y47.63 I-0.476 J0
G1 X301.588 Y47.821
G2 X302.54 Y47.821 I0.476 J0
G2 X301.588 Y47.821 I-0.476 J0
G1 X301.588 Y48.011
G2 X302.54 Y48.011 I0.476 J0
G2 X301.588 Y48.011 I-0.476 J0
G1 X301.588 Y48.202
G2 X302.54 Y48.202 I0.476 J0
G2 X301.588 Y48.202 I-0.476 J0
G1 X301.588 Y48.392
G2 X302.54 Y48.392 I0.476 J0
G2 X301.588 Y48.392 I-0.476 J0
G1 X301.588 Y48.583
G2 X302.54 Y48.583 I0.476 J0
G2 X301.588 Y48.583 I-0.476 J0
G1 X301.588 Y48.773
G2 X302.54 Y48.773 I0.476 J0
G2 X301.588 Y48.773 I-0.476 J0
G1 X301.588 Y48.964
G2 X302.54 Y48.964 I0.476 J0
G2 X301.588 Y48.964 I-0.476 J0
G1 X301.588 Y49.154
G2 X302.54 Y49.154 I0.476 J0
G2 X301.588 Y49.154 I-0.476 J0
G1 X301.588 Y49.345
G2 X302.54 Y49.345 I0.476 J0
G2 X301.588 Y49.345 I-0.476 J0
G1 X301.588 Y49.535
G2 X302.54 Y49.535 I0.476 J0
G2 X301.588 Y49.535 I-0.476 J0
G1 X301.588 Y49.726
G2 X302.54 Y49.726 I0.476 J0
G2 X301.588 Y49.726 I-0.476 J0
G1 X301.588 Y49.916
G2 X302.54 Y49.916 I0.476 J0
G2 X301.588 Y49.916 I-0.476 J0
G1 X301.588 Y50.107
G2 X302.54 Y50.107 I0.476 J0
G2 X301.588 Y50.107 I-0.476 J0
G1 X301.588 Y50.297
G2 X302.54 Y50.297 I0.476 J0
G2 X301.588 Y50.297 I-0.476 J0
G1 X301.588 Y50.488
G2 X302.54 Y50.488 I0.476 J0
G2 X301.588 Y50.488 I-0.476 J0
G1 X301.588 Y50.678
G2 X302.54 Y50.678 I0.476 J0
G2 X301.588 Y50.678 I-0.476 J0
G1 X301.588 Y50.869
G2 X302.54 Y50.869 I0.476 J0
G2 X301.588 Y50.869 I-0.476 J0
G1 X301.588 Y51.059
G2 X302.54 Y51.059 I0.476 J0
G2 X301.588 Y51.059 I-0.476 J0
G1 X301.588 Y51.25
G2 X302.54 Y51.25 I0.476 J0
G2 X301.588 Y51.25 I-0.476 J0
G1 X301.588 Y51.44
G2 X302.54 Y51.44 I0.476 J0
G2 X301.588 Y51.44 I-0.476 J0
G1 X301.588 Y51.631
G2 X302.54 Y51.631 I0.476 J0
G2 X301.588 Y51.631 I-0.476 J0
G1 X301.588 Y51.821
G2 X302.54 Y51.821 I0.476 J0
G2 X301.588 Y51.821 I-0.476 J0
G1 X301.588 Y52.012
G2 X302.54 Y52.012 I0.476 J0
G2 X301.588 Y52.012 I-0.476 J0
G1 X301.588 Y52.202
G2 X302.54 Y52.202 I0.476 J0
G2 X301.588 Y52.202 I-0.476 J0
G1 X301.588 Y52.393
G2 X302.54 Y52.393 I0.476 J0
G2 X301.588 Y52.393 I-0.476 J0
G1 X301.588 Y52.583
G2 X302.54 Y52.583 I0.476 J0
G2 X301.588 Y52.583 I-0.476 J0
G1 X301.588 Y52.774
G2 X302.54 Y52.774 I0.476 J0
G2 X301.588 Y52.774 I-0.476 J0
G1 X301.588 Y52.964
G2 X302.54 Y52.964 I0.476 J0
G2 X301.588 Y52.964 I-0.476 J0
G1 X301.588 Y53.155
G2 X302.54 Y53.155 I0.476 J0
G2 X301.588 Y53.155 I-0.476 J0
G1 X301.588 Y53.345
G2 X302.54 Y53.345 I0.476 J0
G2 X301.588 Y53.345 I-0.476 J0
G1 X301.588 Y53.536
G2 X302.54 Y53.536 I0.476 J0
G2 X301.588 Y53.536 I-0.476 J0
G1 X301.588 Y53.726
G2 X302.54 Y53.726 I0.476 J0
G2 X301.588 Y53.726 I-0.476 J0
G1 X301.588 Y53.917
G2 X302.54 Y53.917 I0.476 J0
G2 X301.588 Y53.917 I-0.476 J0
G1 X301.588 Y54.107
G2 X302.54 Y54.107 I0.476 J0
G2 X301.588 Y54.107 I-0.476 J0
G1 X301.588 Y54.298
G2 X302.54 Y54.298 I0.476 J0
G2 X301.588 Y54.298 I-0.476 J0
G1 X301.588 Y54.488
G2 X302.54 Y54.488 I0.476 J0
G2 X301.588 Y54.488 I-0.476 J0
G1 X301.588 Y54.679
G2 X302.54 Y54.679 I0.476 J0
G2 X301.588 Y54.679 I-0.476 J0
G1 X301.588 Y54.869
G2 X302.54 Y54.869 I0.476 J0
G2 X301.588 Y54.869 I-0.476 J0
G1 X301.588 Y55.046
G1 X301.588 Y55.049
G2 X302.54 Y55.059 I0.476 J0.005
G2 X301.588 Y55.049 I-0.476 J-0.005
G3 X301.585 Y55.218 I-13.807 J-0.109
G2 X302.537 Y55.218 I0.476 J0
G2 X301.585 Y55.218 I-0.476 J0
G3 X301.581 Y55.336 I-4.702 J-0.105
G2 X302.533 Y55.382 I0.476 J0.023
G2 X301.581 Y55.336 I-0.476 J-0.023
G3 X301.57 Y55.499 I-25.676 J-1.71
G2 X302.52 Y55.573 I0.475 J0.037
G2 X301.57 Y55.499 I-0.475 J-0.037
G2 X301.555 Y55.667 I18.735 J1.731
G2 X302.506 Y55.722 I0.476 J0.028
G2 X301.555 Y55.667 I-0.476 J-0.028
G3 X301.537 Y55.809 I-19.072 J-2.308
G2 X302.484 Y55.919 I0.473 J0.055
G2 X301.537 Y55.809 I-0.473 J-0.055
G3 X301.516 Y55.966 I-2.682 J-0.277
G2 X302.46 Y56.098 I0.472 J0.066
G2 X301.516 Y55.966 I-0.472 J-0.066
G3 X301.493 Y56.124 I-13.63 J-1.941
G2 X302.431 Y56.288 I0.469 J0.082
G2 X301.493 Y56.124 I-0.469 J-0.082
G2 X301.461 Y56.292 I7.498 J1.525
G2 X302.395 Y56.477 I0.467 J0.092
G2 X301.461 Y56.292 I-0.467 J-0.092
G2 X301.422 Y56.471 I6.187 J1.425
G2 X302.356 Y56.657 I0.467 J0.093
G2 X301.422 Y56.471 I-0.467 J-0.093
G2 X301.394 Y56.589 I2.711 J0.711
G2 X302.319 Y56.816 I0.462 J0.114
G2 X301.394 Y56.589 I-0.462 J-0.114
G3 X301.357 Y56.73 I-5.862 J-1.482
G2 X302.28 Y56.966 I0.462 J0.118
G2 X301.357 Y56.73 I-0.462 J-0.118
G3 X301.314 Y56.881 I-19.799 J-5.51
G2 X302.238 Y57.112 I0.462 J0.116
G2 X301.314 Y56.881 I-0.462 J-0.116
G2 X301.281 Y56.991 I63.407 J19.168
G2 X302.197 Y57.253 I0.458 J0.131
G2 X301.281 Y56.991 I-0.458 J-0.131
G3 X301.232 Y57.135 I-30.566 J-10.191
G2 X302.136 Y57.436 I0.452 J0.151
G2 X301.232 Y57.135 I-0.452 J-0.151
G3 X301.187 Y57.264 I-2.642 J-0.852
G2 X302.09 Y57.57 I0.451 J0.153
G2 X301.187 Y57.264 I-0.451 J-0.153
G3 X301.144 Y57.378 I-3.022 J-1.078
G2 X302.021 Y57.749 I0.439 J0.185
G2 X301.144 Y57.378 I-0.439 J-0.185
G2 X301.08 Y57.536 I43.899 J17.9
G2 X301.97 Y57.877 I0.445 J0.17
G2 X301.08 Y57.536 I-0.445 J-0.17
G3 X301.015 Y57.687 I-2.77 J-1.102
G2 X301.898 Y58.044 I0.442 J0.179
G2 X301.015 Y57.687 I-0.442 J-0.179
G2 X300.952 Y57.826 I76.876 J35.145
G2 X301.821 Y58.215 I0.435 J0.195
G2 X300.952 Y57.826 I-0.435 J-0.195
G3 X300.886 Y57.961 I-3.566 J-1.652
G2 X301.736 Y58.39 I0.425 J0.215
G2 X300.886 Y57.961 I-0.425 J-0.215
G2 X300.81 Y58.107 I4.538 J2.44
G2 X301.652 Y58.555 I0.421 J0.224
G2 X300.81 Y58.107 I-0.421 J-0.224
G2 X300.729 Y58.253 I34.687 J19.397
G2 X301.562 Y58.715 I0.416 J0.231
G2 X300.729 Y58.253 I-0.416 J-0.231
G2 X300.709 Y58.287 I0.834 J0.502
G1 X300.71 Y58.287
G3 X300.651 Y58.388 I-1.614 J-0.874
G2 X301.461 Y58.888 I0.405 J0.25
G2 X300.651 Y58.388 I-0.405 J-0.25
G3 X300.568 Y58.524 I-11.013 J-6.664
G2 X301.385 Y59.013 I0.409 J0.244
G2 X300.568 Y58.524 I-0.409 J-0.244
G3 X300.488 Y58.647 I-5.754 J-3.615
G2 X301.281 Y59.175 I0.396 J0.264
G2 X300.488 Y58.647 I-0.396 J-0.264
G3 X300.403 Y58.77 I-3.343 J-2.21
G2 X301.186 Y59.313 I0.391 J0.272
G2 X300.403 Y58.77 I-0.391 J-0.272
G2 X300.319 Y58.889 I7.743 J5.607
G2 X301.074 Y59.469 I0.378 J0.29
G2 X300.319 Y58.889 I-0.378 J-0.29
G2 X300.229 Y59.011 I2.84 J2.178
G2 X301.014 Y59.551 I0.392 J0.27
G2 X300.229 Y59.011 I-0.392 J-0.27
G2 X300.159 Y59.098 I2.461 J2.061
G2 X300.901 Y59.696 I0.371 J0.299
G2 X300.159 Y59.098 I-0.371 J-0.299
G2 X300.067 Y59.212 I23.509 J19.039
G2 X300.78 Y59.844 I0.356 J0.316
G2 X300.067 Y59.212 I-0.356 J-0.316
G3 X299.961 Y59.334 I-3.138 J-2.61
G2 X300.671 Y59.97 I0.355 J0.318
G2 X299.961 Y59.334 I-0.355 J-0.318
G3 X299.854 Y59.454 I-2.474 J-2.101
G2 X300.568 Y60.084 I0.357 J0.315
G2 X299.854 Y59.454 I-0.357 J-0.315
G3 X299.749 Y59.565 I-4.668 J-4.335
G2 X300.438 Y60.224 I0.344 J0.329
G2 X299.749 Y59.565 I-0.344 J-0.329
G3 X299.633 Y59.682 I-1.37 J-1.239
G2 X300.302 Y60.36 I0.335 J0.339
G2 X299.633 Y59.682 I-0.335 J-0.339
G3 X299.519 Y59.793 I-12.808 J-12.996
G2 X300.191 Y60.469 I0.336 J0.338
G2 X299.519 Y59.793 I-0.336 J-0.338
G3 X299.418 Y59.887 I-3.167 J-3.311
G2 X300.046 Y60.604 I0.314 J0.358
G2 X299.418 Y59.887 I-0.314 J-0.358
G3 X299.295 Y59.996 I-3.423 J-3.731
G2 X299.901 Y60.73 I0.303 J0.367
G2 X299.295 Y59.996 I-0.303 J-0.367
G3 X299.173 Y60.099 I-2.872 J-3.304
G2 X299.748 Y60.858 I0.288 J0.38
G2 X299.173 Y60.099 I-0.288 J-0.38
G3 X299.023 Y60.219 I-67.002 J-83.284
G2 X299.643 Y60.942 I0.31 J0.362
G2 X299.023 Y60.219 I-0.31 J-0.362
G3 X298.934 Y60.285 I-1.483 J-1.899
G2 X299.49 Y61.058 I0.278 J0.386
G2 X298.934 Y60.285 I-0.278 J-0.386
G3 X298.796 Y60.384 I-65.903 J-91.581
G2 X299.36 Y61.152 I0.282 J0.384
G2 X298.796 Y60.384 I-0.282 J-0.384
G3 X298.673 Y60.471 I-1.813 J-2.45
G2 X299.202 Y61.263 I0.264 J0.396
G2 X298.673 Y60.471 I-0.264 J-0.396
G3 X298.543 Y60.555 I-3.943 J-5.927
G2 X299.051 Y61.361 I0.254 J0.403
G2 X298.543 Y60.555 I-0.254 J-0.403
G3 X298.41 Y60.637 I-1.991 J-3.092
G2 X298.925 Y61.439 I0.257 J0.401
G2 X298.41 Y60.637 I-0.257 J-0.401
G3 X298.28 Y60.714 I-1.088 J-1.682
G2 X298.772 Y61.53 I0.246 J0.408
G2 X298.28 Y60.714 I-0.246 J-0.408
G3 X298.169 Y60.776 I-2.049 J-3.552
G2 X298.638 Y61.606 I0.234 J0.415
G2 X298.169 Y60.776 I-0.234 J-0.415
G3 X298.025 Y60.852 I-1.229 J-2.148
G2 X298.478 Y61.691 I0.226 J0.419
G2 X298.025 Y60.852 I-0.226 J-0.419
G3 X297.873 Y60.929 I-1.771 J-3.313
G2 X298.3 Y61.781 I0.213 J0.426
G2 X297.873 Y60.929 I-0.213 J-0.426
G2 X297.741 Y60.991 I18.345 J38.899
G2 X298.125 Y61.863 I0.192 J0.436
G2 X297.741 Y60.991 I-0.192 J-0.436
G2 X297.595 Y61.056 I8.907 J20.453
G2 X297.996 Y61.919 I0.201 J0.432
G2 X297.595 Y61.056 I-0.201 J-0.432
G3 X297.496 Y61.098 I-0.878 J-1.931
G2 X297.823 Y61.993 I0.163 J0.448
G2 X297.496 Y61.098 I-0.163 J-0.448
G2 X297.321 Y61.166 I2.135 J5.747
G2 X297.687 Y62.045 I0.183 J0.44
G2 X297.321 Y61.166 I-0.183 J-0.44
G3 X297.2 Y61.211 I-1.974 J-5.135
G2 X297.523 Y62.107 I0.161 J0.448
G2 X297.2 Y61.211 I-0.161 J-0.448
G2 X297.025 Y61.27 I1.511 J4.741
G2 X297.346 Y62.167 I0.16 J0.449
G2 X297.025 Y61.27 I-0.16 J-0.449
G3 X296.907 Y61.306 I-1.564 J-4.869
G2 X297.181 Y62.219 I0.137 J0.456
G2 X296.907 Y61.306 I-0.137 J-0.456
G3 X296.741 Y61.353 I-10.019 J-35.38
G2 X297.002 Y62.269 I0.131 J0.458
G2 X296.741 Y61.353 I-0.131 J-0.458
G3 X296.597 Y61.393 I-5.977 J-21.292
G2 X296.824 Y62.318 I0.114 J0.462
G2 X296.597 Y61.393 I-0.114 J-0.462
G3 X296.433 Y61.43 I-0.864 J-3.43
G2 X296.636 Y62.361 I0.102 J0.465
G2 X296.433 Y61.43 I-0.102 J-0.465
G2 X296.288 Y61.461 I1.756 J8.49
G2 X296.475 Y62.396 I0.093 J0.467
G2 X296.288 Y61.461 I-0.093 J-0.467
G3 X296.122 Y61.493 I-30.808 J-160.31
G2 X296.286 Y62.432 I0.082 J0.469
G2 X296.122 Y61.493 I-0.082 J-0.469
G2 X295.963 Y61.518 I0.713 J5.165
G2 X296.104 Y62.46 I0.07 J0.471
G2 X295.963 Y61.518 I-0.07 J-0.471
G3 X295.796 Y61.54 I-0.678 J-4.477
G2 X295.906 Y62.486 I0.055 J0.473
G2 X295.796 Y61.54 I-0.055 J-0.473
G3 X295.639 Y61.558 I-0.846 J-6.55
G2 X295.742 Y62.506 I0.051 J0.474
G2 X295.639 Y61.558 I-0.051 J-0.474
G2 X295.478 Y61.571 I0.615 J8.454
G2 X295.551 Y62.521 I0.037 J0.475
G2 X295.478 Y61.571 I-0.037 J-0.475
G2 X295.314 Y61.582 I0.333 J6.594
G2 X295.36 Y62.534 I0.023 J0.476
G2 X295.314 Y61.582 I-0.023 J-0.476
G3 X295.15 Y61.586 I-0.276 J-7.158
G2 X295.169 Y62.538 I0.009 J0.476
G2 X295.15 Y61.586 I-0.009 J-0.476
G3 X294.971 Y61.588 I-0.146 J-7.096
G2 X294.971 Y62.54 I0 J0.476
G2 X294.971 Y61.588 I0 J-0.476
G1 X294.781 Y61.588
G2 X294.781 Y62.54 I0 J0.476
G2 X294.781 Y61.588 I0 J-0.476
G1 X294.59 Y61.588
G2 X294.59 Y62.54 I0 J0.476
G2 X294.59 Y61.588 I0 J-0.476
G1 X294.4 Y61.588
G2 X294.4 Y62.54 I0 J0.476
G2 X294.4 Y61.588 I0 J-0.476
G1 X294.209 Y61.588
G2 X294.209 Y62.54 I0 J0.476
G2 X294.209 Y61.588 I0 J-0.476
G1 X294.019 Y61.588
G2 X294.019 Y62.54 I0 J0.476
G2 X294.019 Y61.588 I0 J-0.476
G1 X293.828 Y61.588
G2 X293.828 Y62.54 I0 J0.476
G2 X293.828 Y61.588 I0 J-0.476
G1 X293.638 Y61.588
G2 X293.638 Y62.54 I0 J0.476
G2 X293.638 Y61.588 I0 J-0.476
G1 X293.447 Y61.588
G2 X293.447 Y62.54 I0 J0.476
G2 X293.447 Y61.588 I0 J-0.476
G1 X293.257 Y61.588
G2 X293.257 Y62.54 I0 J0.476
G2 X293.257 Y61.588 I0 J-0.476
G1 X293.066 Y61.588
G2 X293.066 Y62.54 I0 J0.476
G2 X293.066 Y61.588 I0 J-0.476
G1 X292.876 Y61.588
G2 X292.876 Y62.54 I0 J0.476
G2 X292.876 Y61.588 I0 J-0.476
G1 X292.685 Y61.588
G2 X292.685 Y62.54 I0 J0.476
G2 X292.685 Y61.588 I0 J-0.476
G1 X292.495 Y61.588
G2 X292.495 Y62.54 I0 J0.476
G2 X292.495 Y61.588 I0 J-0.476
G1 X292.304 Y61.588
G2 X292.304 Y62.54 I0 J0.476
G2 X292.304 Y61.588 I0 J-0.476
G1 X292.114 Y61.588
G2 X292.114 Y62.54 I0 J0.476
G2 X292.114 Y61.588 I0 J-0.476
G1 X291.923 Y61.588
G2 X291.923 Y62.54 I0 J0.476
G2 X291.923 Y61.588 I0 J-0.476
G1 X291.733 Y61.588
G2 X291.733 Y62.54 I0 J0.476
G2 X291.733 Y61.588 I0 J-0.476
G1 X291.542 Y61.588
G2 X291.542 Y62.54 I0 J0.476
G2 X291.542 Y61.588 I0 J-0.476
G1 X291.352 Y61.588
G2 X291.352 Y62.54 I0 J0.476
G2 X291.352 Y61.588 I0 J-0.476
G1 X291.161 Y61.588
G2 X291.161 Y62.54 I0 J0.476
G2 X291.161 Y61.588 I0 J-0.476
G1 X290.971 Y61.588
G2 X290.971 Y62.54 I0 J0.476
G2 X290.971 Y61.588 I0 J-0.476
G1 X290.78 Y61.588
G2 X290.78 Y62.54 I0 J0.476
G2 X290.78 Y61.588 I0 J-0.476
G1 X290.59 Y61.588
G2 X290.59 Y62.54 I0 J0.476
G2 X290.59 Y61.588 I0 J-0.476
G1 X290.399 Y61.588
G2 X290.399 Y62.54 I0 J0.476
G2 X290.399 Y61.588 I0 J-0.476
G1 X290.209 Y61.588
G2 X290.209 Y62.54 I0 J0.476
G2 X290.209 Y61.588 I0 J-0.476
G1 X290.018 Y61.588
G2 X290.018 Y62.54 I0 J0.476
G2 X290.018 Y61.588 I0 J-0.476
G1 X289.828 Y61.588
G2 X289.828 Y62.54 I0 J0.476
G2 X289.828 Y61.588 I0 J-0.476
G1 X289.637 Y61.588
G2 X289.637 Y62.54 I0 J0.476
G2 X289.637 Y61.588 I0 J-0.476
G1 X289.447 Y61.588
G2 X289.447 Y62.54 I0 J0.476
G2 X289.447 Y61.588 I0 J-0.476
G1 X289.256 Y61.588
G2 X289.256 Y62.54 I0 J0.476
G2 X289.256 Y61.588 I0 J-0.476
G1 X289.066 Y61.588
G2 X289.066 Y62.54 I0 J0.476
G2 X289.066 Y61.588 I0 J-0.476
G1 X288.875 Y61.588
G2 X288.875 Y62.54 I0 J0.476
G2 X288.875 Y61.588 I0 J-0.476
G1 X288.685 Y61.588
G2 X288.685 Y62.54 I0 J0.476
G2 X288.685 Y61.588 I0 J-0.476
G1 X288.494 Y61.588
G2 X288.494 Y62.54 I0 J0.476
G2 X288.494 Y61.588 I0 J-0.476
G1 X288.304 Y61.588
G2 X288.304 Y62.54 I0 J0.476
G2 X288.304 Y61.588 I0 J-0.476
G1 X288.113 Y61.588
G2 X288.113 Y62.54 I0 J0.476
G2 X288.113 Y61.588 I0 J-0.476
G1 X287.923 Y61.588
G2 X287.923 Y62.54 I0 J0.476
G2 X287.923 Y61.588 I0 J-0.476
G1 X287.732 Y61.588
G2 X287.732 Y62.54 I0 J0.476
G2 X287.732 Y61.588 I0 J-0.476
G1 X287.542 Y61.588
G2 X287.542 Y62.54 I0 J0.476
G2 X287.542 Y61.588 I0 J-0.476
G1 X287.351 Y61.588
G2 X287.351 Y62.54 I0 J0.476
G2 X287.351 Y61.588 I0 J-0.476
G1 X287.161 Y61.588
G2 X287.161 Y62.54 I0 J0.476
G2 X287.161 Y61.588 I0 J-0.476
G1 X286.97 Y61.588
G2 X286.97 Y62.54 I0 J0.476
G2 X286.97 Y61.588 I0 J-0.476
G1 X286.78 Y61.588
G2 X286.78 Y62.54 I0 J0.476
G2 X286.78 Y61.588 I0 J-0.476
G1 X286.589 Y61.588
G2 X286.589 Y62.54 I0 J0.476
G2 X286.589 Y61.588 I0 J-0.476
G1 X286.399 Y61.588
G2 X286.399 Y62.54 I0 J0.476
G2 X286.399 Y61.588 I0 J-0.476
G1 X286.208 Y61.588
G2 X286.208 Y62.54 I0 J0.476
G2 X286.208 Y61.588 I0 J-0.476
G1 X286.018 Y61.588
G2 X286.018 Y62.54 I0 J0.476
G2 X286.018 Y61.588 I0 J-0.476
G1 X285.827 Y61.588
G2 X285.827 Y62.54 I0 J0.476
G2 X285.827 Y61.588 I0 J-0.476
G1 X285.637 Y61.588
G2 X285.637 Y62.54 I0 J0.476
G2 X285.637 Y61.588 I0 J-0.476
G1 X285.446 Y61.588
G2 X285.446 Y62.54 I0 J0.476
G2 X285.446 Y61.588 I0 J-0.476
G1 X285.256 Y61.588
G2 X285.256 Y62.54 I0 J0.476
G2 X285.256 Y61.588 I0 J-0.476
G1 X285.065 Y61.588
G2 X285.065 Y62.54 I0 J0.476
G2 X285.065 Y61.588 I0 J-0.476
G1 X284.875 Y61.588
G2 X284.875 Y62.54 I0 J0.476
G2 X284.875 Y61.588 I0 J-0.476
G1 X284.684 Y61.588
G2 X284.684 Y62.54 I0 J0.476
G2 X284.684 Y61.588 I0 J-0.476
G1 X284.494 Y61.588
G2 X284.494 Y62.54 I0 J0.476
G2 X284.494 Y61.588 I0 J-0.476
G1 X284.303 Y61.588
G2 X284.303 Y62.54 I0 J0.476
G2 X284.303 Y61.588 I0 J-0.476
G1 X284.113 Y61.588
G2 X284.113 Y62.54 I0 J0.476
G2 X284.113 Y61.588 I0 J-0.476
G1 X283.922 Y61.588
G2 X283.922 Y62.54 I0 J0.476
G2 X283.922 Y61.588 I0 J-0.476
G1 X283.732 Y61.588
G2 X283.732 Y62.54 I0 J0.476
G2 X283.732 Y61.588 I0 J-0.476
G1 X283.541 Y61.588
G2 X283.541 Y62.54 I0 J0.476
G2 X283.541 Y61.588 I0 J-0.476
G1 X283.351 Y61.588
G2 X283.351 Y62.54 I0 J0.476
G2 X283.351 Y61.588 I0 J-0.476
G1 X283.16 Y61.588
G2 X283.16 Y62.54 I0 J0.476
G2 X283.16 Y61.588 I0 J-0.476
G1 X282.97 Y61.588
G2 X282.97 Y62.54 I0 J0.476
G2 X282.97 Y61.588 I0 J-0.476
G1 X282.779 Y61.588
G2 X282.779 Y62.54 I0 J0.476
G2 X282.779 Y61.588 I0 J-0.476
G1 X282.589 Y61.588
G2 X282.589 Y62.54 I0 J0.476
G2 X282.589 Y61.588 I0 J-0.476
G1 X282.398 Y61.588
G2 X282.398 Y62.54 I0 J0.476
G2 X282.398 Y61.588 I0 J-0.476
G1 X282.208 Y61.588
G2 X282.208 Y62.54 I0 J0.476
G2 X282.208 Y61.588 I0 J-0.476
G1 X282.017 Y61.588
G2 X282.017 Y62.54 I0 J0.476
G2 X282.017 Y61.588 I0 J-0.476
G1 X281.827 Y61.588
G2 X281.827 Y62.54 I0 J0.476
G2 X281.827 Y61.588 I0 J-0.476
G1 X281.636 Y61.588
G2 X281.636 Y62.54 I0 J0.476
G2 X281.636 Y61.588 I0 J-0.476
G1 X281.446 Y61.588
G2 X281.446 Y62.54 I0 J0.476
G2 X281.446 Y61.588 I0 J-0.476
G1 X281.255 Y61.588
G2 X281.255 Y62.54 I0 J0.476
G2 X281.255 Y61.588 I0 J-0.476
G1 X281.065 Y61.588
G2 X281.065 Y62.54 I0 J0.476
G2 X281.065 Y61.588 I0 J-0.476
G1 X280.874 Y61.588
G2 X280.874 Y62.54 I0 J0.476
G2 X280.874 Y61.588 I0 J-0.476
G1 X280.684 Y61.588
G2 X280.684 Y62.54 I0 J0.476
G2 X280.684 Y61.588 I0 J-0.476
G1 X280.493 Y61.588
G2 X280.493 Y62.54 I0 J0.476
G2 X280.493 Y61.588 I0 J-0.476
G1 X280.303 Y61.588
G2 X280.303 Y62.54 I0 J0.476
G2 X280.303 Y61.588 I0 J-0.476
G1 X280.112 Y61.588
G2 X280.112 Y62.54 I0 J0.476
G2 X280.112 Y61.588 I0 J-0.476
G1 X279.922 Y61.588
G2 X279.922 Y62.54 I0 J0.476
G2 X279.922 Y61.588 I0 J-0.476
G1 X279.731 Y61.588
G2 X279.731 Y62.54 I0 J0.476
G2 X279.731 Y61.588 I0 J-0.476
G1 X279.541 Y61.588
G2 X279.541 Y62.54 I0 J0.476
G2 X279.541 Y61.588 I0 J-0.476
G1 X279.35 Y61.588
G2 X279.35 Y62.54 I0 J0.476
G2 X279.35 Y61.588 I0 J-0.476
G1 X279.16 Y61.588
G2 X279.16 Y62.54 I0 J0.476
G2 X279.16 Y61.588 I0 J-0.476
G1 X278.969 Y61.588
G2 X278.969 Y62.54 I0 J0.476
G2 X278.969 Y61.588 I0 J-0.476
G1 X278.779 Y61.588
G2 X278.779 Y62.54 I0 J0.476
G2 X278.779 Y61.588 I0 J-0.476
G1 X278.588 Y61.588
G2 X278.588 Y62.54 I0 J0.476
G2 X278.588 Y61.588 I0 J-0.476
G1 X278.398 Y61.588
G2 X278.398 Y62.54 I0 J0.476
G2 X278.398 Y61.588 I0 J-0.476
G1 X278.207 Y61.588
G2 X278.207 Y62.54 I0 J0.476
G2 X278.207 Y61.588 I0 J-0.476
G1 X278.017 Y61.588
G2 X278.017 Y62.54 I0 J0.476
G2 X278.017 Y61.588 I0 J-0.476
G1 X277.826 Y61.588
G2 X277.826 Y62.54 I0 J0.476
G2 X277.826 Y61.588 I0 J-0.476
G1 X277.636 Y61.588
G2 X277.636 Y62.54 I0 J0.476
G2 X277.636 Y61.588 I0 J-0.476
G1 X277.445 Y61.588
G2 X277.445 Y62.54 I0 J0.476
G2 X277.445 Y61.588 I0 J-0.476
G1 X277.255 Y61.588
G2 X277.255 Y62.54 I0 J0.476
G2 X277.255 Y61.588 I0 J-0.476
G1 X277.064 Y61.588
G2 X277.064 Y62.54 I0 J0.476
G2 X277.064 Y61.588 I0 J-0.476
G1 X276.874 Y61.588
G2 X276.874 Y62.54 I0 J0.476
G2 X276.874 Y61.588 I0 J-0.476
G1 X276.683 Y61.588
G2 X276.683 Y62.54 I0 J0.476
G2 X276.683 Y61.588 I0 J-0.476
G1 X276.493 Y61.588
G2 X276.493 Y62.54 I0 J0.476
G2 X276.493 Y61.588 I0 J-0.476
G1 X276.302 Y61.588
G2 X276.302 Y62.54 I0 J0.476
G2 X276.302 Y61.588 I0 J-0.476
G1 X276.112 Y61.588
G2 X276.112 Y62.54 I0 J0.476
G2 X276.112 Y61.588 I0 J-0.476
G1 X275.921 Y61.588
G2 X275.921 Y62.54 I0 J0.476
G2 X275.921 Y61.588 I0 J-0.476
G1 X275.731 Y61.588
G2 X275.731 Y62.54 I0 J0.476
G2 X275.731 Y61.588 I0 J-0.476
G1 X275.54 Y61.588
G2 X275.54 Y62.54 I0 J0.476
G2 X275.54 Y61.588 I0 J-0.476
G1 X275.35 Y61.588
G2 X275.35 Y62.54 I0 J0.476
G2 X275.35 Y61.588 I0 J-0.476
G1 X275.159 Y61.588
G2 X275.159 Y62.54 I0 J0.476
G2 X275.159 Y61.588 I0 J-0.476
G1 X274.969 Y61.588
G2 X274.969 Y62.54 I0 J0.476
G2 X274.969 Y61.588 I0 J-0.476
G1 X274.778 Y61.588
G2 X274.778 Y62.54 I0 J0.476
G2 X274.778 Y61.588 I0 J-0.476
G1 X274.588 Y61.588
G2 X274.588 Y62.54 I0 J0.476
G2 X274.588 Y61.588 I0 J-0.476
G1 X274.397 Y61.588
G2 X274.397 Y62.54 I0 J0.476
G2 X274.397 Y61.588 I0 J-0.476
G1 X274.207 Y61.588
G2 X274.207 Y62.54 I0 J0.476
G2 X274.207 Y61.588 I0 J-0.476
G1 X274.016 Y61.588
G2 X274.016 Y62.54 I0 J0.476
G2 X274.016 Y61.588 I0 J-0.476
G1 X273.826 Y61.588
G2 X273.826 Y62.54 I0 J0.476
G2 X273.826 Y61.588 I0 J-0.476
G1 X273.635 Y61.588
G2 X273.635 Y62.54 I0 J0.476
G2 X273.635 Y61.588 I0 J-0.476
G1 X273.445 Y61.588
G2 X273.445 Y62.54 I0 J0.476
G2 X273.445 Y61.588 I0 J-0.476
G1 X273.254 Y61.588
G2 X273.254 Y62.54 I0 J0.476
G2 X273.254 Y61.588 I0 J-0.476
G1 X273.064 Y61.588
G2 X273.064 Y62.54 I0 J0.476
G2 X273.064 Y61.588 I0 J-0.476
G1 X272.873 Y61.588
G2 X272.873 Y62.54 I0 J0.476
G2 X272.873 Y61.588 I0 J-0.476
G1 X272.683 Y61.588
G2 X272.683 Y62.54 I0 J0.476
G2 X272.683 Y61.588 I0 J-0.476
G1 X272.492 Y61.588
G2 X272.492 Y62.54 I0 J0.476
G2 X272.492 Y61.588 I0 J-0.476
G1 X272.302 Y61.588
G2 X272.302 Y62.54 I0 J0.476
G2 X272.302 Y61.588 I0 J-0.476
G1 X272.111 Y61.588
G2 X272.111 Y62.54 I0 J0.476
G2 X272.111 Y61.588 I0 J-0.476
G1 X271.921 Y61.588
G2 X271.921 Y62.54 I0 J0.476
G2 X271.921 Y61.588 I0 J-0.476
G1 X271.73 Y61.588
G2 X271.73 Y62.54 I0 J0.476
G2 X271.73 Y61.588 I0 J-0.476
G1 X271.54 Y61.588
G2 X271.54 Y62.54 I0 J0.476
G2 X271.54 Y61.588 I0 J-0.476
G1 X271.349 Y61.588
G2 X271.349 Y62.54 I0 J0.476
G2 X271.349 Y61.588 I0 J-0.476
G1 X271.159 Y61.588
G2 X271.159 Y62.54 I0 J0.476
G2 X271.159 Y61.588 I0 J-0.476
G1 X270.968 Y61.588
G2 X270.968 Y62.54 I0 J0.476
G2 X270.968 Y61.588 I0 J-0.476
G1 X270.778 Y61.588
G2 X270.778 Y62.54 I0 J0.476
G2 X270.778 Y61.588 I0 J-0.476
G1 X270.587 Y61.588
G2 X270.587 Y62.54 I0 J0.476
G2 X270.587 Y61.588 I0 J-0.476
G1 X270.397 Y61.588
G2 X270.397 Y62.54 I0 J0.476
G2 X270.397 Y61.588 I0 J-0.476
G1 X270.206 Y61.588
G2 X270.206 Y62.54 I0 J0.476
G2 X270.206 Y61.588 I0 J-0.476
G1 X270.016 Y61.588
G2 X270.016 Y62.54 I0 J0.476
G2 X270.016 Y61.588 I0 J-0.476
G1 X269.825 Y61.588
G2 X269.825 Y62.54 I0 J0.476
G2 X269.825 Y61.588 I0 J-0.476
G1 X269.635 Y61.588
G2 X269.635 Y62.54 I0 J0.476
G2 X269.635 Y61.588 I0 J-0.476
G1 X269.444 Y61.588
G2 X269.444 Y62.54 I0 J0.476
G2 X269.444 Y61.588 I0 J-0.476
G1 X269.254 Y61.588
G2 X269.254 Y62.54 I0 J0.476
G2 X269.254 Y61.588 I0 J-0.476
G1 X269.063 Y61.588
G2 X269.063 Y62.54 I0 J0.476
G2 X269.063 Y61.588 I0 J-0.476
G1 X268.873 Y61.588
G2 X268.873 Y62.54 I0 J0.476
G2 X268.873 Y61.588 I0 J-0.476
G1 X268.682 Y61.588
G2 X268.682 Y62.54 I0 J0.476
G2 X268.682 Y61.588 I0 J-0.476
G1 X268.492 Y61.588
G2 X268.492 Y62.54 I0 J0.476
G2 X268.492 Y61.588 I0 J-0.476
G1 X268.301 Y61.588
G2 X268.301 Y62.54 I0 J0.476
G2 X268.301 Y61.588 I0 J-0.476
G1 X268.111 Y61.588
G2 X268.111 Y62.54 I0 J0.476
G2 X268.111 Y61.588 I0 J-0.476
G1 X267.92 Y61.588
G2 X267.92 Y62.54 I0 J0.476
G2 X267.92 Y61.588 I0 J-0.476
G1 X267.73 Y61.588
G2 X267.73 Y62.54 I0 J0.476
G2 X267.73 Y61.588 I0 J-0.476
G1 X267.539 Y61.588
G2 X267.539 Y62.54 I0 J0.476
G2 X267.539 Y61.588 I0 J-0.476
G1 X267.349 Y61.588
G2 X267.349 Y62.54 I0 J0.476
G2 X267.349 Y61.588 I0 J-0.476
G1 X267.158 Y61.588
G2 X267.158 Y62.54 I0 J0.476
G2 X267.158 Y61.588 I0 J-0.476
G1 X266.968 Y61.588
G2 X266.968 Y62.54 I0 J0.476
G2 X266.968 Y61.588 I0 J-0.476
G1 X266.777 Y61.588
G2 X266.777 Y62.54 I0 J0.476
G2 X266.777 Y61.588 I0 J-0.476
G1 X266.587 Y61.588
G2 X266.587 Y62.54 I0 J0.476
G2 X266.587 Y61.588 I0 J-0.476
G1 X266.396 Y61.588
G2 X266.396 Y62.54 I0 J0.476
G2 X266.396 Y61.588 I0 J-0.476
G1 X266.206 Y61.588
G2 X266.206 Y62.54 I0 J0.476
G2 X266.206 Y61.588 I0 J-0.476
G1 X266.015 Y61.588
G2 X266.015 Y62.54 I0 J0.476
G2 X266.015 Y61.588 I0 J-0.476
G1 X265.825 Y61.588
G2 X265.825 Y62.54 I0 J0.476
G2 X265.825 Y61.588 I0 J-0.476
G1 X265.634 Y61.588
G2 X265.634 Y62.54 I0 J0.476
G2 X265.634 Y61.588 I0 J-0.476
G1 X265.444 Y61.588
G2 X265.444 Y62.54 I0 J0.476
G2 X265.444 Y61.588 I0 J-0.476
G1 X265.253 Y61.588
G2 X265.253 Y62.54 I0 J0.476
G2 X265.253 Y61.588 I0 J-0.476
G1 X265.063 Y61.588
G2 X265.063 Y62.54 I0 J0.476
G2 X265.063 Y61.588 I0 J-0.476
G1 X264.872 Y61.588
G2 X264.872 Y62.54 I0 J0.476
G2 X264.872 Y61.588 I0 J-0.476
G1 X264.682 Y61.588
G2 X264.682 Y62.54 I0 J0.476
G2 X264.682 Y61.588 I0 J-0.476
G1 X264.491 Y61.588
G2 X264.491 Y62.54 I0 J0.476
G2 X264.491 Y61.588 I0 J-0.476
G1 X264.301 Y61.588
G2 X264.301 Y62.54 I0 J0.476
G2 X264.301 Y61.588 I0 J-0.476
G1 X264.11 Y61.588
G2 X264.11 Y62.54 I0 J0.476
G2 X264.11 Y61.588 I0 J-0.476
G1 X263.92 Y61.588
G2 X263.92 Y62.54 I0 J0.476
G2 X263.92 Y61.588 I0 J-0.476
G1 X263.729 Y61.588
G2 X263.729 Y62.54 I0 J0.476
G2 X263.729 Y61.588 I0 J-0.476
G1 X263.539 Y61.588
G2 X263.539 Y62.54 I0 J0.476
G2 X263.539 Y61.588 I0 J-0.476
G1 X263.348 Y61.588
G2 X263.348 Y62.54 I0 J0.476
G2 X263.348 Y61.588 I0 J-0.476
G1 X263.158 Y61.588
G2 X263.158 Y62.54 I0 J0.476
G2 X263.158 Y61.588 I0 J-0.476
G1 X262.967 Y61.588
G2 X262.967 Y62.54 I0 J0.476
G2 X262.967 Y61.588 I0 J-0.476
G1 X262.777 Y61.588
G2 X262.777 Y62.54 I0 J0.476
G2 X262.777 Y61.588 I0 J-0.476
G1 X262.586 Y61.588
G2 X262.586 Y62.54 I0 J0.476
G2 X262.586 Y61.588 I0 J-0.476
G1 X262.396 Y61.588
G2 X262.396 Y62.54 I0 J0.476
G2 X262.396 Y61.588 I0 J-0.476
G1 X262.205 Y61.588
G2 X262.205 Y62.54 I0 J0.476
G2 X262.205 Y61.588 I0 J-0.476
G1 X262.015 Y61.588
G2 X262.015 Y62.54 I0 J0.476
G2 X262.015 Y61.588 I0 J-0.476
G1 X261.824 Y61.588
G2 X261.824 Y62.54 I0 J0.476
G2 X261.824 Y61.588 I0 J-0.476
G1 X261.634 Y61.588
G2 X261.634 Y62.54 I0 J0.476
G2 X261.634 Y61.588 I0 J-0.476
G1 X261.443 Y61.588
G2 X261.443 Y62.54 I0 J0.476
G2 X261.443 Y61.588 I0 J-0.476
G1 X261.253 Y61.588
G2 X261.253 Y62.54 I0 J0.476
G2 X261.253 Y61.588 I0 J-0.476
G1 X261.062 Y61.588
G2 X261.062 Y62.54 I0 J0.476
G2 X261.062 Y61.588 I0 J-0.476
G1 X260.872 Y61.588
G2 X260.872 Y62.54 I0 J0.476
G2 X260.872 Y61.588 I0 J-0.476
G1 X260.681 Y61.588
G2 X260.681 Y62.54 I0 J0.476
G2 X260.681 Y61.588 I0 J-0.476
G1 X260.491 Y61.588
G2 X260.491 Y62.54 I0 J0.476
G2 X260.491 Y61.588 I0 J-0.476
G1 X260.3 Y61.588
G2 X260.3 Y62.54 I0 J0.476
G2 X260.3 Y61.588 I0 J-0.476
G1 X260.11 Y61.588
G2 X260.11 Y62.54 I0 J0.476
G2 X260.11 Y61.588 I0 J-0.476
G1 X259.919 Y61.588
G2 X259.919 Y62.54 I0 J0.476
G2 X259.919 Y61.588 I0 J-0.476
G1 X259.729 Y61.588
G2 X259.729 Y62.54 I0 J0.476
G2 X259.729 Y61.588 I0 J-0.476
G1 X259.538 Y61.588
G2 X259.538 Y62.54 I0 J0.476
G2 X259.538 Y61.588 I0 J-0.476
G1 X259.348 Y61.588
G2 X259.348 Y62.54 I0 J0.476
G2 X259.348 Y61.588 I0 J-0.476
G1 X259.157 Y61.588
G2 X259.157 Y62.54 I0 J0.476
G2 X259.157 Y61.588 I0 J-0.476
G1 X258.967 Y61.588
G2 X258.967 Y62.54 I0 J0.476
G2 X258.967 Y61.588 I0 J-0.476
G1 X258.776 Y61.588
G2 X258.776 Y62.54 I0 J0.476
G2 X258.776 Y61.588 I0 J-0.476
G1 X258.586 Y61.588
G2 X258.586 Y62.54 I0 J0.476
G2 X258.586 Y61.588 I0 J-0.476
G1 X258.395 Y61.588
G2 X258.395 Y62.54 I0 J0.476
G2 X258.395 Y61.588 I0 J-0.476
G1 X258.205 Y61.588
G2 X258.205 Y62.54 I0 J0.476
G2 X258.205 Y61.588 I0 J-0.476
G1 X258.014 Y61.588
G2 X258.014 Y62.54 I0 J0.476
G2 X258.014 Y61.588 I0 J-0.476
G1 X257.824 Y61.588
G2 X257.824 Y62.54 I0 J0.476
G2 X257.824 Y61.588 I0 J-0.476
G1 X257.633 Y61.588
G2 X257.633 Y62.54 I0 J0.476
G2 X257.633 Y61.588 I0 J-0.476
G1 X257.443 Y61.588
G2 X257.443 Y62.54 I0 J0.476
G2 X257.443 Y61.588 I0 J-0.476
G1 X257.252 Y61.588
G2 X257.252 Y62.54 I0 J0.476
G2 X257.252 Y61.588 I0 J-0.476
G1 X257.062 Y61.588
G2 X257.062 Y62.54 I0 J0.476
G2 X257.062 Y61.588 I0 J-0.476
G1 X256.871 Y61.588
G2 X256.871 Y62.54 I0 J0.476
G2 X256.871 Y61.588 I0 J-0.476
G1 X256.681 Y61.588
G2 X256.681 Y62.54 I0 J0.476
G2 X256.681 Y61.588 I0 J-0.476
G1 X256.49 Y61.588
G2 X256.49 Y62.54 I0 J0.476
G2 X256.49 Y61.588 I0 J-0.476
G1 X256.3 Y61.588
G2 X256.3 Y62.54 I0 J0.476
G2 X256.3 Y61.588 I0 J-0.476
G1 X256.109 Y61.588
G2 X256.109 Y62.54 I0 J0.476
G2 X256.109 Y61.588 I0 J-0.476
G1 X255.919 Y61.588
G2 X255.919 Y62.54 I0 J0.476
G2 X255.919 Y61.588 I0 J-0.476
G1 X255.728 Y61.588
G2 X255.728 Y62.54 I0 J0.476
G2 X255.728 Y61.588 I0 J-0.476
G1 X255.538 Y61.588
G2 X255.538 Y62.54 I0 J0.476
G2 X255.538 Y61.588 I0 J-0.476
G1 X255.347 Y61.588
G2 X255.347 Y62.54 I0 J0.476
G2 X255.347 Y61.588 I0 J-0.476
G1 X255.157 Y61.588
G2 X255.157 Y62.54 I0 J0.476
G2 X255.157 Y61.588 I0 J-0.476
G1 X254.966 Y61.588
G2 X254.966 Y62.54 I0 J0.476
G2 X254.966 Y61.588 I0 J-0.476
G1 X254.776 Y61.588
G2 X254.776 Y62.54 I0 J0.476
G2 X254.776 Y61.588 I0 J-0.476
G1 X254.585 Y61.588
G2 X254.585 Y62.54 I0 J0.476
G2 X254.585 Y61.588 I0 J-0.476
G1 X254.395 Y61.588
G2 X254.395 Y62.54 I0 J0.476
G2 X254.395 Y61.588 I0 J-0.476
G1 X254.204 Y61.588
G2 X254.204 Y62.54 I0 J0.476
G2 X254.204 Y61.588 I0 J-0.476
G1 X254.014 Y61.588
G2 X254.014 Y62.54 I0 J0.476
G2 X254.014 Y61.588 I0 J-0.476
G1 X253.823 Y61.588
G2 X253.823 Y62.54 I0 J0.476
G2 X253.823 Y61.588 I0 J-0.476
G1 X253.633 Y61.588
G2 X253.633 Y62.54 I0 J0.476
G2 X253.633 Y61.588 I0 J-0.476
G1 X253.442 Y61.588
G2 X253.442 Y62.54 I0 J0.476
G2 X253.442 Y61.588 I0 J-0.476
G1 X253.252 Y61.588
G2 X253.252 Y62.54 I0 J0.476
G2 X253.252 Y61.588 I0 J-0.476
G1 X253.061 Y61.588
G2 X253.061 Y62.54 I0 J0.476
G2 X253.061 Y61.588 I0 J-0.476
G1 X252.871 Y61.588
G2 X252.871 Y62.54 I0 J0.476
G2 X252.871 Y61.588 I0 J-0.476
G1 X252.68 Y61.588
G2 X252.68 Y62.54 I0 J0.476
G2 X252.68 Y61.588 I0 J-0.476
G1 X252.49 Y61.588
G2 X252.49 Y62.54 I0 J0.476
G2 X252.49 Y61.588 I0 J-0.476
G1 X252.299 Y61.588
G2 X252.299 Y62.54 I0 J0.476
G2 X252.299 Y61.588 I0 J-0.476
G1 X252.109 Y61.588
G2 X252.109 Y62.54 I0 J0.476
G2 X252.109 Y61.588 I0 J-0.476
G1 X251.918 Y61.588
G2 X251.918 Y62.54 I0 J0.476
G2 X251.918 Y61.588 I0 J-0.476
G1 X251.728 Y61.588
G2 X251.728 Y62.54 I0 J0.476
G2 X251.728 Y61.588 I0 J-0.476
G1 X251.537 Y61.588
G2 X251.537 Y62.54 I0 J0.476
G2 X251.537 Y61.588 I0 J-0.476
G1 X251.347 Y61.588
G2 X251.347 Y62.54 I0 J0.476
G2 X251.347 Y61.588 I0 J-0.476
G1 X251.156 Y61.588
G2 X251.156 Y62.54 I0 J0.476
G2 X251.156 Y61.588 I0 J-0.476
G1 X250.966 Y61.588
G2 X250.966 Y62.54 I0 J0.476
G2 X250.966 Y61.588 I0 J-0.476
G1 X250.775 Y61.588
G2 X250.775 Y62.54 I0 J0.476
G2 X250.775 Y61.588 I0 J-0.476
G1 X250.585 Y61.588
G2 X250.585 Y62.54 I0 J0.476
G2 X250.585 Y61.588 I0 J-0.476
G1 X250.394 Y61.588
G2 X250.394 Y62.54 I0 J0.476
G2 X250.394 Y61.588 I0 J-0.476
G1 X250.204 Y61.588
G2 X250.204 Y62.54 I0 J0.476
G2 X250.204 Y61.588 I0 J-0.476
G1 X250.013 Y61.588
G2 X250.013 Y62.54 I0 J0.476
G2 X250.013 Y61.588 I0 J-0.476
G1 X249.823 Y61.588
G2 X249.823 Y62.54 I0 J0.476
G2 X249.823 Y61.588 I0 J-0.476
G1 X249.632 Y61.588
G2 X249.632 Y62.54 I0 J0.476
G2 X249.632 Y61.588 I0 J-0.476
G1 X249.442 Y61.588
G2 X249.442 Y62.54 I0 J0.476
G2 X249.442 Y61.588 I0 J-0.476
G1 X249.251 Y61.588
G2 X249.251 Y62.54 I0 J0.476
G2 X249.251 Y61.588 I0 J-0.476
G1 X249.061 Y61.588
G2 X249.061 Y62.54 I0 J0.476
G2 X249.061 Y61.588 I0 J-0.476
G1 X248.87 Y61.588
G2 X248.87 Y62.54 I0 J0.476
G2 X248.87 Y61.588 I0 J-0.476
G1 X248.68 Y61.588
G2 X248.68 Y62.54 I0 J0.476
G2 X248.68 Y61.588 I0 J-0.476
G1 X248.489 Y61.588
G2 X248.489 Y62.54 I0 J0.476
G2 X248.489 Y61.588 I0 J-0.476
G1 X248.299 Y61.588
G2 X248.299 Y62.54 I0 J0.476
G2 X248.299 Y61.588 I0 J-0.476
G1 X248.108 Y61.588
G2 X248.108 Y62.54 I0 J0.476
G2 X248.108 Y61.588 I0 J-0.476
G1 X247.918 Y61.588
G2 X247.918 Y62.54 I0 J0.476
G2 X247.918 Y61.588 I0 J-0.476
G1 X247.727 Y61.588
G2 X247.727 Y62.54 I0 J0.476
G2 X247.727 Y61.588 I0 J-0.476
G1 X247.537 Y61.588
G2 X247.537 Y62.54 I0 J0.476
G2 X247.537 Y61.588 I0 J-0.476
G1 X247.346 Y61.588
G2 X247.346 Y62.54 I0 J0.476
G2 X247.346 Y61.588 I0 J-0.476
G1 X247.156 Y61.588
G2 X247.156 Y62.54 I0 J0.476
G2 X247.156 Y61.588 I0 J-0.476
G1 X246.965 Y61.588
G2 X246.965 Y62.54 I0 J0.476
G2 X246.965 Y61.588 I0 J-0.476
G1 X246.775 Y61.588
G2 X246.775 Y62.54 I0 J0.476
G2 X246.775 Y61.588 I0 J-0.476
G1 X246.584 Y61.588
G2 X246.584 Y62.54 I0 J0.476
G2 X246.584 Y61.588 I0 J-0.476
G1 X246.394 Y61.588
G2 X246.394 Y62.54 I0 J0.476
G2 X246.394 Y61.588 I0 J-0.476
G1 X246.203 Y61.588
G2 X246.203 Y62.54 I0 J0.476
G2 X246.203 Y61.588 I0 J-0.476
G1 X246.013 Y61.588
G2 X246.013 Y62.54 I0 J0.476
G2 X246.013 Y61.588 I0 J-0.476
G1 X245.822 Y61.588
G2 X245.822 Y62.54 I0 J0.476
G2 X245.822 Y61.588 I0 J-0.476
G1 X245.632 Y61.588
G2 X245.632 Y62.54 I0 J0.476
G2 X245.632 Y61.588 I0 J-0.476
G1 X245.441 Y61.588
G2 X245.441 Y62.54 I0 J0.476
G2 X245.441 Y61.588 I0 J-0.476
G1 X245.251 Y61.588
G2 X245.251 Y62.54 I0 J0.476
G2 X245.251 Y61.588 I0 J-0.476
G1 X245.06 Y61.588
G2 X245.06 Y62.54 I0 J0.476
G2 X245.06 Y61.588 I0 J-0.476
G1 X244.87 Y61.588
G2 X244.87 Y62.54 I0 J0.476
G2 X244.87 Y61.588 I0 J-0.476
G1 X244.679 Y61.588
G2 X244.679 Y62.54 I0 J0.476
G2 X244.679 Y61.588 I0 J-0.476
G1 X244.489 Y61.588
G2 X244.489 Y62.54 I0 J0.476
G2 X244.489 Y61.588 I0 J-0.476
G1 X244.298 Y61.588
G2 X244.298 Y62.54 I0 J0.476
G2 X244.298 Y61.588 I0 J-0.476
G1 X244.108 Y61.588
G2 X244.108 Y62.54 I0 J0.476
G2 X244.108 Y61.588 I0 J-0.476
G1 X243.917 Y61.588
G2 X243.917 Y62.54 I0 J0.476
G2 X243.917 Y61.588 I0 J-0.476
G1 X243.727 Y61.588
G2 X243.727 Y62.54 I0 J0.476
G2 X243.727 Y61.588 I0 J-0.476
G1 X243.536 Y61.588
G2 X243.536 Y62.54 I0 J0.476
G2 X243.536 Y61.588 I0 J-0.476
G1 X243.346 Y61.588
G2 X243.346 Y62.54 I0 J0.476
G2 X243.346 Y61.588 I0 J-0.476
G1 X243.155 Y61.588
G2 X243.155 Y62.54 I0 J0.476
G2 X243.155 Y61.588 I0 J-0.476
G1 X242.965 Y61.588
G2 X242.965 Y62.54 I0 J0.476
G2 X242.965 Y61.588 I0 J-0.476
G1 X242.774 Y61.588
G2 X242.774 Y62.54 I0 J0.476
G2 X242.774 Y61.588 I0 J-0.476
G1 X242.584 Y61.588
G2 X242.584 Y62.54 I0 J0.476
G2 X242.584 Y61.588 I0 J-0.476
G1 X242.393 Y61.588
G2 X242.393 Y62.54 I0 J0.476
G2 X242.393 Y61.588 I0 J-0.476
G1 X242.203 Y61.588
G2 X242.203 Y62.54 I0 J0.476
G2 X242.203 Y61.588 I0 J-0.476
G1 X242.012 Y61.588
G2 X242.012 Y62.54 I0 J0.476
G2 X242.012 Y61.588 I0 J-0.476
G1 X241.822 Y61.588
G2 X241.822 Y62.54 I0 J0.476
G2 X241.822 Y61.588 I0 J-0.476
G1 X241.631 Y61.588
G2 X241.631 Y62.54 I0 J0.476
G2 X241.631 Y61.588 I0 J-0.476
G1 X241.441 Y61.588
G2 X241.441 Y62.54 I0 J0.476
G2 X241.441 Y61.588 I0 J-0.476
G1 X241.25 Y61.588
G2 X241.25 Y62.54 I0 J0.476
G2 X241.25 Y61.588 I0 J-0.476
G1 X241.06 Y61.588
G2 X241.06 Y62.54 I0 J0.476
G2 X241.06 Y61.588 I0 J-0.476
G1 X240.869 Y61.588
G2 X240.869 Y62.54 I0 J0.476
G2 X240.869 Y61.588 I0 J-0.476
G1 X240.679 Y61.588
G2 X240.679 Y62.54 I0 J0.476
G2 X240.679 Y61.588 I0 J-0.476
G1 X240.488 Y61.588
G2 X240.488 Y62.54 I0 J0.476
G2 X240.488 Y61.588 I0 J-0.476
G1 X240.298 Y61.588
G2 X240.298 Y62.54 I0 J0.476
G2 X240.298 Y61.588 I0 J-0.476
G1 X240.107 Y61.588
G2 X240.107 Y62.54 I0 J0.476
G2 X240.107 Y61.588 I0 J-0.476
G1 X239.917 Y61.588
G2 X239.917 Y62.54 I0 J0.476
G2 X239.917 Y61.588 I0 J-0.476
G1 X239.726 Y61.588
G2 X239.726 Y62.54 I0 J0.476
G2 X239.726 Y61.588 I0 J-0.476
G1 X239.536 Y61.588
G2 X239.536 Y62.54 I0 J0.476
G2 X239.536 Y61.588 I0 J-0.476
G1 X239.345 Y61.588
G2 X239.345 Y62.54 I0 J0.476
G2 X239.345 Y61.588 I0 J-0.476
G1 X239.155 Y61.588
G2 X239.155 Y62.54 I0 J0.476
G2 X239.155 Y61.588 I0 J-0.476
G1 X238.964 Y61.588
G2 X238.964 Y62.54 I0 J0.476
G2 X238.964 Y61.588 I0 J-0.476
G1 X238.774 Y61.588
G2 X238.774 Y62.54 I0 J0.476
G2 X238.774 Y61.588 I0 J-0.476
G1 X238.583 Y61.588
G2 X238.583 Y62.54 I0 J0.476
G2 X238.583 Y61.588 I0 J-0.476
G1 X238.393 Y61.588
G2 X238.393 Y62.54 I0 J0.476
G2 X238.393 Y61.588 I0 J-0.476
G1 X238.202 Y61.588
G2 X238.202 Y62.54 I0 J0.476
G2 X238.202 Y61.588 I0 J-0.476
G1 X238.012 Y61.588
G2 X238.012 Y62.54 I0 J0.476
G2 X238.012 Y61.588 I0 J-0.476
G1 X237.821 Y61.588
G2 X237.821 Y62.54 I0 J0.476
G2 X237.821 Y61.588 I0 J-0.476
G1 X237.631 Y61.588
G2 X237.631 Y62.54 I0 J0.476
G2 X237.631 Y61.588 I0 J-0.476
G1 X237.44 Y61.588
G2 X237.44 Y62.54 I0 J0.476
G2 X237.44 Y61.588 I0 J-0.476
G1 X237.25 Y61.588
G2 X237.25 Y62.54 I0 J0.476
G2 X237.25 Y61.588 I0 J-0.476
G1 X237.059 Y61.588
G2 X237.059 Y62.54 I0 J0.476
G2 X237.059 Y61.588 I0 J-0.476
G1 X236.869 Y61.588
G2 X236.869 Y62.54 I0 J0.476
G2 X236.869 Y61.588 I0 J-0.476
G1 X236.678 Y61.588
G2 X236.678 Y62.54 I0 J0.476
G2 X236.678 Y61.588 I0 J-0.476
G1 X236.488 Y61.588
G2 X236.488 Y62.54 I0 J0.476
G2 X236.488 Y61.588 I0 J-0.476
G1 X236.297 Y61.588
G2 X236.297 Y62.54 I0 J0.476
G2 X236.297 Y61.588 I0 J-0.476
G1 X236.107 Y61.588
G2 X236.107 Y62.54 I0 J0.476
G2 X236.107 Y61.588 I0 J-0.476
G1 X235.916 Y61.588
G2 X235.916 Y62.54 I0 J0.476
G2 X235.916 Y61.588 I0 J-0.476
G1 X235.726 Y61.588
G2 X235.726 Y62.54 I0 J0.476
G2 X235.726 Y61.588 I0 J-0.476
G1 X235.535 Y61.588
G2 X235.535 Y62.54 I0 J0.476
G2 X235.535 Y61.588 I0 J-0.476
G1 X235.345 Y61.588
G2 X235.345 Y62.54 I0 J0.476
G2 X235.345 Y61.588 I0 J-0.476
G1 X235.154 Y61.588
G2 X235.154 Y62.54 I0 J0.476
G2 X235.154 Y61.588 I0 J-0.476
G1 X234.964 Y61.588
G2 X234.964 Y62.54 I0 J0.476
G2 X234.964 Y61.588 I0 J-0.476
G1 X234.773 Y61.588
G2 X234.773 Y62.54 I0 J0.476
G2 X234.773 Y61.588 I0 J-0.476
G1 X234.583 Y61.588
G2 X234.583 Y62.54 I0 J0.476
G2 X234.583 Y61.588 I0 J-0.476
G1 X234.392 Y61.588
G2 X234.392 Y62.54 I0 J0.476
G2 X234.392 Y61.588 I0 J-0.476
G1 X234.202 Y61.588
G2 X234.202 Y62.54 I0 J0.476
G2 X234.202 Y61.588 I0 J-0.476
G1 X234.011 Y61.588
G2 X234.011 Y62.54 I0 J0.476
G2 X234.011 Y61.588 I0 J-0.476
G1 X233.821 Y61.588
G2 X233.821 Y62.54 I0 J0.476
G2 X233.821 Y61.588 I0 J-0.476
G1 X233.63 Y61.588
G2 X233.63 Y62.54 I0 J0.476
G2 X233.63 Y61.588 I0 J-0.476
G1 X233.44 Y61.588
G2 X233.44 Y62.54 I0 J0.476
G2 X233.44 Y61.588 I0 J-0.476
G1 X233.249 Y61.588
G2 X233.249 Y62.54 I0 J0.476
G2 X233.249 Y61.588 I0 J-0.476
G1 X233.059 Y61.588
G2 X233.059 Y62.54 I0 J0.476
G2 X233.059 Y61.588 I0 J-0.476
G1 X232.868 Y61.588
G2 X232.868 Y62.54 I0 J0.476
G2 X232.868 Y61.588 I0 J-0.476
G1 X232.678 Y61.588
G2 X232.678 Y62.54 I0 J0.476
G2 X232.678 Y61.588 I0 J-0.476
G1 X232.487 Y61.588
G2 X232.487 Y62.54 I0 J0.476
G2 X232.487 Y61.588 I0 J-0.476
G1 X232.297 Y61.588
G2 X232.297 Y62.54 I0 J0.476
G2 X232.297 Y61.588 I0 J-0.476
G1 X232.106 Y61.588
G2 X232.106 Y62.54 I0 J0.476
G2 X232.106 Y61.588 I0 J-0.476
G1 X231.916 Y61.588
G2 X231.916 Y62.54 I0 J0.476
G2 X231.916 Y61.588 I0 J-0.476
G1 X231.725 Y61.588
G2 X231.725 Y62.54 I0 J0.476
G2 X231.725 Y61.588 I0 J-0.476
G1 X231.535 Y61.588
G2 X231.535 Y62.54 I0 J0.476
G2 X231.535 Y61.588 I0 J-0.476
G1 X231.344 Y61.588
G2 X231.344 Y62.54 I0 J0.476
G2 X231.344 Y61.588 I0 J-0.476
G1 X231.154 Y61.588
G2 X231.154 Y62.54 I0 J0.476
G2 X231.154 Y61.588 I-0 J-0.476
G1 X230.963 Y61.588
G2 X230.963 Y62.54 I0 J0.476
G2 X230.963 Y61.588 I0 J-0.476
G1 X230.773 Y61.588
G2 X230.773 Y62.54 I0 J0.476
G2 X230.773 Y61.588 I0 J-0.476
G1 X230.582 Y61.588
G2 X230.582 Y62.54 I0 J0.476
G2 X230.582 Y61.588 I0 J-0.476
G1 X230.392 Y61.588
G2 X230.392 Y62.54 I0 J0.476
G2 X230.392 Y61.588 I0 J-0.476
G1 X230.201 Y61.588
G2 X230.201 Y62.54 I0 J0.476
G2 X230.201 Y61.588 I0 J-0.476
G1 X230.011 Y61.588
G2 X230.011 Y62.54 I0 J0.476
G2 X230.011 Y61.588 I0 J-0.476
G1 X229.82 Y61.588
G2 X229.82 Y62.54 I0 J0.476
G2 X229.82 Y61.588 I0 J-0.476
G1 X229.63 Y61.588
G2 X229.63 Y62.54 I0 J0.476
G2 X229.63 Y61.588 I0 J-0.476
G1 X229.439 Y61.588
G2 X229.439 Y62.54 I0 J0.476
G2 X229.439 Y61.588 I0 J-0.476
G1 X229.249 Y61.588
G2 X229.249 Y62.54 I0 J0.476
G2 X229.249 Y61.588 I0 J-0.476
G1 X229.058 Y61.588
G2 X229.058 Y62.54 I0 J0.476
G2 X229.058 Y61.588 I0 J-0.476
G1 X228.868 Y61.588
G2 X228.868 Y62.54 I0 J0.476
G2 X228.868 Y61.588 I0 J-0.476
G1 X228.677 Y61.588
G2 X228.677 Y62.54 I0 J0.476
G2 X228.677 Y61.588 I0 J-0.476
G1 X228.487 Y61.588
G2 X228.487 Y62.54 I0 J0.476
G2 X228.487 Y61.588 I0 J-0.476
G1 X228.296 Y61.588
G2 X228.296 Y62.54 I0 J0.476
G2 X228.296 Y61.588 I0 J-0.476
G1 X228.106 Y61.588
G2 X228.106 Y62.54 I0 J0.476
G2 X228.106 Y61.588 I0 J-0.476
G1 X227.915 Y61.588
G2 X227.915 Y62.54 I0 J0.476
G2 X227.915 Y61.588 I0 J-0.476
G1 X227.725 Y61.588
G2 X227.725 Y62.54 I0 J0.476
G2 X227.725 Y61.588 I0 J-0.476
G1 X227.534 Y61.588
G2 X227.534 Y62.54 I0 J0.476
G2 X227.534 Y61.588 I0 J-0.476
G1 X227.344 Y61.588
G2 X227.344 Y62.54 I0 J0.476
G2 X227.344 Y61.588 I0 J-0.476
G1 X227.153 Y61.588
G2 X227.153 Y62.54 I0 J0.476
G2 X227.153 Y61.588 I0 J-0.476
G1 X226.963 Y61.588
G2 X226.963 Y62.54 I0 J0.476
G2 X226.963 Y61.588 I0 J-0.476
G1 X226.772 Y61.588
G2 X226.772 Y62.54 I0 J0.476
G2 X226.772 Y61.588 I0 J-0.476
G1 X226.582 Y61.588
G2 X226.582 Y62.54 I0 J0.476
G2 X226.582 Y61.588 I0 J-0.476
G1 X226.391 Y61.588
G2 X226.391 Y62.54 I0 J0.476
G2 X226.391 Y61.588 I0 J-0.476
G1 X226.201 Y61.588
G2 X226.201 Y62.54 I0 J0.476
G2 X226.201 Y61.588 I0 J-0.476
G1 X226.01 Y61.588
G2 X226.01 Y62.54 I0 J0.476
G2 X226.01 Y61.588 I0 J-0.476
G1 X225.82 Y61.588
G2 X225.82 Y62.54 I0 J0.476
G2 X225.82 Y61.588 I0 J-0.476
G1 X225.629 Y61.588
G2 X225.629 Y62.54 I0 J0.476
G2 X225.629 Y61.588 I0 J-0.476
G1 X225.439 Y61.588
G2 X225.439 Y62.54 I0 J0.476
G2 X225.439 Y61.588 I0 J-0.476
G1 X225.248 Y61.588
G2 X225.248 Y62.54 I0 J0.476
G2 X225.248 Y61.588 I0 J-0.476
G1 X225.058 Y61.588
G2 X225.058 Y62.54 I0 J0.476
G2 X225.058 Y61.588 I0 J-0.476
G1 X224.867 Y61.588
G2 X224.867 Y62.54 I0 J0.476
G2 X224.867 Y61.588 I0 J-0.476
G1 X224.677 Y61.588
G2 X224.677 Y62.54 I0 J0.476
G2 X224.677 Y61.588 I0 J-0.476
G1 X224.486 Y61.588
G2 X224.486 Y62.54 I0 J0.476
G2 X224.486 Y61.588 I0 J-0.476
G1 X224.296 Y61.588
G2 X224.296 Y62.54 I0 J0.476
G2 X224.296 Y61.588 I0 J-0.476
G1 X224.105 Y61.588
G2 X224.105 Y62.54 I0 J0.476
G2 X224.105 Y61.588 I0 J-0.476
G1 X223.915 Y61.588
G2 X223.915 Y62.54 I0 J0.476
G2 X223.915 Y61.588 I0 J-0.476
G1 X223.724 Y61.588
G2 X223.724 Y62.54 I0 J0.476
G2 X223.724 Y61.588 I0 J-0.476
G1 X223.534 Y61.588
G2 X223.534 Y62.54 I0 J0.476
G2 X223.534 Y61.588 I0 J-0.476
G1 X223.343 Y61.588
G2 X223.343 Y62.54 I0 J0.476
G2 X223.343 Y61.588 I0 J-0.476
G1 X223.153 Y61.588
G2 X223.153 Y62.54 I0 J0.476
G2 X223.153 Y61.588 I0 J-0.476
G1 X222.962 Y61.588
G2 X222.962 Y62.54 I0 J0.476
G2 X222.962 Y61.588 I0 J-0.476
G1 X222.772 Y61.588
G2 X222.772 Y62.54 I0 J0.476
G2 X222.772 Y61.588 I0 J-0.476
G1 X222.581 Y61.588
G2 X222.581 Y62.54 I0 J0.476
G2 X222.581 Y61.588 I0 J-0.476
G1 X222.391 Y61.588
G2 X222.391 Y62.54 I0 J0.476
G2 X222.391 Y61.588 I0 J-0.476
G1 X222.2 Y61.588
G2 X222.2 Y62.54 I0 J0.476
G2 X222.2 Y61.588 I0 J-0.476
G1 X222.01 Y61.588
G2 X222.01 Y62.54 I0 J0.476
G2 X222.01 Y61.588 I0 J-0.476
G1 X221.819 Y61.588
G2 X221.819 Y62.54 I0 J0.476
G2 X221.819 Y61.588 I0 J-0.476
G1 X221.629 Y61.588
G2 X221.629 Y62.54 I0 J0.476
G2 X221.629 Y61.588 I0 J-0.476
G1 X221.438 Y61.588
G2 X221.438 Y62.54 I0 J0.476
G2 X221.438 Y61.588 I0 J-0.476
G1 X221.248 Y61.588
G2 X221.248 Y62.54 I0 J0.476
G2 X221.248 Y61.588 I0 J-0.476
G1 X221.057 Y61.588
G2 X221.057 Y62.54 I0 J0.476
G2 X221.057 Y61.588 I0 J-0.476
G1 X220.867 Y61.588
G2 X220.867 Y62.54 I0 J0.476
G2 X220.867 Y61.588 I0 J-0.476
G1 X220.676 Y61.588
G2 X220.676 Y62.54 I0 J0.476
G2 X220.676 Y61.588 I0 J-0.476
G1 X220.486 Y61.588
G2 X220.486 Y62.54 I0 J0.476
G2 X220.486 Y61.588 I0 J-0.476
G1 X220.295 Y61.588
G2 X220.295 Y62.54 I0 J0.476
G2 X220.295 Y61.588 I0 J-0.476
G1 X220.105 Y61.588
G2 X220.105 Y62.54 I0 J0.476
G2 X220.105 Y61.588 I0 J-0.476
G1 X219.914 Y61.588
G2 X219.914 Y62.54 I0 J0.476
G2 X219.914 Y61.588 I0 J-0.476
G1 X219.724 Y61.588
G2 X219.724 Y62.54 I0 J0.476
G2 X219.724 Y61.588 I0 J-0.476
G1 X219.533 Y61.588
G2 X219.533 Y62.54 I0 J0.476
G2 X219.533 Y61.588 I0 J-0.476
G1 X219.343 Y61.588
G2 X219.343 Y62.54 I0 J0.476
G2 X219.343 Y61.588 I0 J-0.476
G1 X219.152 Y61.588
G2 X219.152 Y62.54 I0 J0.476
G2 X219.152 Y61.588 I0 J-0.476
G1 X218.962 Y61.588
G2 X218.962 Y62.54 I0 J0.476
G2 X218.962 Y61.588 I0 J-0.476
G1 X218.771 Y61.588
G2 X218.771 Y62.54 I0 J0.476
G2 X218.771 Y61.588 I0 J-0.476
G1 X218.581 Y61.588
G2 X218.581 Y62.54 I0 J0.476
G2 X218.581 Y61.588 I0 J-0.476
G1 X218.39 Y61.588
G2 X218.39 Y62.54 I0 J0.476
G2 X218.39 Y61.588 I0 J-0.476
G1 X218.2 Y61.588
G2 X218.2 Y62.54 I0 J0.476
G2 X218.2 Y61.588 I0 J-0.476
G1 X218.009 Y61.588
G2 X218.009 Y62.54 I0 J0.476
G2 X218.009 Y61.588 I0 J-0.476
G1 X217.819 Y61.588
G2 X217.819 Y62.54 I0 J0.476
G2 X217.819 Y61.588 I0 J-0.476
G1 X217.628 Y61.588
G2 X217.628 Y62.54 I0 J0.476
G2 X217.628 Y61.588 I0 J-0.476
G1 X217.438 Y61.588
G2 X217.438 Y62.54 I0 J0.476
G2 X217.438 Y61.588 I0 J-0.476
G1 X217.247 Y61.588
G2 X217.247 Y62.54 I0 J0.476
G2 X217.247 Y61.588 I0 J-0.476
G1 X217.057 Y61.588
G2 X217.057 Y62.54 I0 J0.476
G2 X217.057 Y61.588 I0 J-0.476
G1 X216.866 Y61.588
G2 X216.866 Y62.54 I0 J0.476
G2 X216.866 Y61.588 I0 J-0.476
G1 X216.676 Y61.588
G2 X216.676 Y62.54 I0 J0.476
G2 X216.676 Y61.588 I0 J-0.476
G1 X216.485 Y61.588
G2 X216.485 Y62.54 I0 J0.476
G2 X216.485 Y61.588 I0 J-0.476
G1 X216.295 Y61.588
G2 X216.295 Y62.54 I0 J0.476
G2 X216.295 Y61.588 I0 J-0.476
G1 X216.104 Y61.588
G2 X216.104 Y62.54 I0 J0.476
G2 X216.104 Y61.588 I0 J-0.476
G1 X215.914 Y61.588
G2 X215.914 Y62.54 I0 J0.476
G2 X215.914 Y61.588 I0 J-0.476
G1 X215.723 Y61.588
G2 X215.723 Y62.54 I0 J0.476
G2 X215.723 Y61.588 I0 J-0.476
G1 X215.533 Y61.588
G2 X215.533 Y62.54 I0 J0.476
G2 X215.533 Y61.588 I0 J-0.476
G1 X215.342 Y61.588
G2 X215.342 Y62.54 I0 J0.476
G2 X215.342 Y61.588 I0 J-0.476
G1 X215.152 Y61.588
G2 X215.152 Y62.54 I0 J0.476
G2 X215.152 Y61.588 I0 J-0.476
G1 X214.961 Y61.588
G2 X214.961 Y62.54 I0 J0.476
G2 X214.961 Y61.588 I0 J-0.476
G1 X214.771 Y61.588
G2 X214.771 Y62.54 I0 J0.476
G2 X214.771 Y61.588 I0 J-0.476
G1 X214.58 Y61.588
G2 X214.58 Y62.54 I0 J0.476
G2 X214.58 Y61.588 I0 J-0.476
G1 X214.39 Y61.588
G2 X214.39 Y62.54 I0 J0.476
G2 X214.39 Y61.588 I0 J-0.476
G1 X214.199 Y61.588
G2 X214.199 Y62.54 I0 J0.476
G2 X214.199 Y61.588 I0 J-0.476
G1 X214.009 Y61.588
G2 X214.009 Y62.54 I0 J0.476
G2 X214.009 Y61.588 I0 J-0.476
G1 X213.818 Y61.588
G2 X213.818 Y62.54 I0 J0.476
G2 X213.818 Y61.588 I0 J-0.476
G1 X213.628 Y61.588
G2 X213.628 Y62.54 I0 J0.476
G2 X213.628 Y61.588 I0 J-0.476
G1 X213.437 Y61.588
G2 X213.437 Y62.54 I0 J0.476
G2 X213.437 Y61.588 I0 J-0.476
G1 X213.247 Y61.588
G2 X213.247 Y62.54 I0 J0.476
G2 X213.247 Y61.588 I0 J-0.476
G1 X213.056 Y61.588
G2 X213.056 Y62.54 I0 J0.476
G2 X213.056 Y61.588 I0 J-0.476
G1 X212.866 Y61.588
G2 X212.866 Y62.54 I0 J0.476
G2 X212.866 Y61.588 I0 J-0.476
G1 X212.675 Y61.588
G2 X212.675 Y62.54 I0 J0.476
G2 X212.675 Y61.588 I0 J-0.476
G1 X212.485 Y61.588
G2 X212.485 Y62.54 I0 J0.476
G2 X212.485 Y61.588 I0 J-0.476
G1 X212.294 Y61.588
G2 X212.294 Y62.54 I0 J0.476
G2 X212.294 Y61.588 I0 J-0.476
G1 X212.104 Y61.588
G2 X212.104 Y62.54 I0 J0.476
G2 X212.104 Y61.588 I0 J-0.476
G1 X211.913 Y61.588
G2 X211.913 Y62.54 I0 J0.476
G2 X211.913 Y61.588 I0 J-0.476
G1 X211.723 Y61.588
G2 X211.723 Y62.54 I0 J0.476
G2 X211.723 Y61.588 I0 J-0.476
G1 X211.532 Y61.588
G2 X211.532 Y62.54 I0 J0.476
G2 X211.532 Y61.588 I0 J-0.476
G1 X211.342 Y61.588
G2 X211.342 Y62.54 I0 J0.476
G2 X211.342 Y61.588 I0 J-0.476
G1 X211.151 Y61.588
G2 X211.151 Y62.54 I0 J0.476
G2 X211.151 Y61.588 I0 J-0.476
G1 X210.961 Y61.588
G2 X210.961 Y62.54 I0 J0.476
G2 X210.961 Y61.588 I0 J-0.476
G1 X210.77 Y61.588
G2 X210.77 Y62.54 I0 J0.476
G2 X210.77 Y61.588 I0 J-0.476
G1 X210.58 Y61.588
G2 X210.58 Y62.54 I0 J0.476
G2 X210.58 Y61.588 I0 J-0.476
G1 X210.389 Y61.588
G2 X210.389 Y62.54 I0 J0.476
G2 X210.389 Y61.588 I0 J-0.476
G1 X210.199 Y61.588
G2 X210.199 Y62.54 I0 J0.476
G2 X210.199 Y61.588 I0 J-0.476
G1 X210.008 Y61.588
G2 X210.008 Y62.54 I0 J0.476
G2 X210.008 Y61.588 I0 J-0.476
G1 X209.818 Y61.588
G2 X209.818 Y62.54 I0 J0.476
G2 X209.818 Y61.588 I0 J-0.476
G1 X209.627 Y61.588
G2 X209.627 Y62.54 I0 J0.476
G2 X209.627 Y61.588 I0 J-0.476
G1 X209.437 Y61.588
G2 X209.437 Y62.54 I0 J0.476
G2 X209.437 Y61.588 I0 J-0.476
G1 X209.246 Y61.588
G2 X209.246 Y62.54 I0 J0.476
G2 X209.246 Y61.588 I0 J-0.476
G1 X209.056 Y61.588
G2 X209.056 Y62.54 I0 J0.476
G2 X209.056 Y61.588 I0 J-0.476
G1 X208.865 Y61.588
G2 X208.865 Y62.54 I0 J0.476
G2 X208.865 Y61.588 I0 J-0.476
G1 X208.675 Y61.588
G2 X208.675 Y62.54 I0 J0.476
G2 X208.675 Y61.588 I0 J-0.476
G1 X208.484 Y61.588
G2 X208.484 Y62.54 I0 J0.476
G2 X208.484 Y61.588 I0 J-0.476
G1 X208.294 Y61.588
G2 X208.294 Y62.54 I0 J0.476
G2 X208.294 Y61.588 I0 J-0.476
G1 X208.103 Y61.588
G2 X208.103 Y62.54 I0 J0.476
G2 X208.103 Y61.588 I0 J-0.476
G1 X207.913 Y61.588
G2 X207.913 Y62.54 I0 J0.476
G2 X207.913 Y61.588 I0 J-0.476
G1 X207.722 Y61.588
G2 X207.722 Y62.54 I0 J0.476
G2 X207.722 Y61.588 I0 J-0.476
G1 X207.532 Y61.588
G2 X207.532 Y62.54 I0 J0.476
G2 X207.532 Y61.588 I0 J-0.476
G1 X207.341 Y61.588
G2 X207.341 Y62.54 I0 J0.476
G2 X207.341 Y61.588 I0 J-0.476
G1 X207.151 Y61.588
G2 X207.151 Y62.54 I0 J0.476
G2 X207.151 Y61.588 I0 J-0.476
G1 X206.96 Y61.588
G2 X206.96 Y62.54 I0 J0.476
G2 X206.96 Y61.588 I0 J-0.476
G1 X206.77 Y61.588
G2 X206.77 Y62.54 I0 J0.476
G2 X206.77 Y61.588 I0 J-0.476
G1 X206.579 Y61.588
G2 X206.579 Y62.54 I0 J0.476
G2 X206.579 Y61.588 I0 J-0.476
G1 X206.389 Y61.588
G2 X206.389 Y62.54 I0 J0.476
G2 X206.389 Y61.588 I0 J-0.476
G1 X206.198 Y61.588
G2 X206.198 Y62.54 I0 J0.476
G2 X206.198 Y61.588 I0 J-0.476
G1 X206.008 Y61.588
G2 X206.008 Y62.54 I0 J0.476
G2 X206.008 Y61.588 I0 J-0.476
G1 X205.817 Y61.588
G2 X205.817 Y62.54 I0 J0.476
G2 X205.817 Y61.588 I0 J-0.476
G1 X205.627 Y61.588
G2 X205.627 Y62.54 I0 J0.476
G2 X205.627 Y61.588 I0 J-0.476
G1 X205.436 Y61.588
G2 X205.436 Y62.54 I0 J0.476
G2 X205.436 Y61.588 I0 J-0.476
G1 X205.246 Y61.588
G2 X205.246 Y62.54 I0 J0.476
G2 X205.246 Y61.588 I0 J-0.476
G1 X205.055 Y61.588
G2 X205.055 Y62.54 I0 J0.476
G2 X205.055 Y61.588 I0 J-0.476
G1 X204.865 Y61.588
G2 X204.865 Y62.54 I0 J0.476
G2 X204.865 Y61.588 I0 J-0.476
G1 X204.674 Y61.588
G2 X204.674 Y62.54 I0 J0.476
G2 X204.674 Y61.588 I0 J-0.476
G1 X204.484 Y61.588
G2 X204.484 Y62.54 I0 J0.476
G2 X204.484 Y61.588 I0 J-0.476
G1 X204.293 Y61.588
G2 X204.293 Y62.54 I0 J0.476
G2 X204.293 Y61.588 I0 J-0.476
G1 X204.103 Y61.588
G2 X204.103 Y62.54 I0 J0.476
G2 X204.103 Y61.588 I0 J-0.476
G1 X203.912 Y61.588
G2 X203.912 Y62.54 I0 J0.476
G2 X203.912 Y61.588 I0 J-0.476
G1 X203.722 Y61.588
G2 X203.722 Y62.54 I0 J0.476
G2 X203.722 Y61.588 I0 J-0.476
G1 X203.531 Y61.588
G2 X203.531 Y62.54 I0 J0.476
G2 X203.531 Y61.588 I0 J-0.476
G1 X203.341 Y61.588
G2 X203.341 Y62.54 I0 J0.476
G2 X203.341 Y61.588 I0 J-0.476
G1 X203.15 Y61.588
G2 X203.15 Y62.54 I0 J0.476
G2 X203.15 Y61.588 I0 J-0.476
G1 X202.96 Y61.588
G2 X202.96 Y62.54 I0 J0.476
G2 X202.96 Y61.588 I0 J-0.476
G1 X202.769 Y61.588
G2 X202.769 Y62.54 I0 J0.476
G2 X202.769 Y61.588 I0 J-0.476
G1 X202.579 Y61.588
G2 X202.579 Y62.54 I0 J0.476
G2 X202.579 Y61.588 I0 J-0.476
G1 X202.388 Y61.588
G2 X202.388 Y62.54 I0 J0.476
G2 X202.388 Y61.588 I0 J-0.476
G1 X202.198 Y61.588
G2 X202.198 Y62.54 I0 J0.476
G2 X202.198 Y61.588 I0 J-0.476
G1 X202.007 Y61.588
G2 X202.007 Y62.54 I0 J0.476
G2 X202.007 Y61.588 I0 J-0.476
G1 X201.817 Y61.588
G2 X201.817 Y62.54 I0 J0.476
G2 X201.817 Y61.588 I0 J-0.476
G1 X201.626 Y61.588
G2 X201.626 Y62.54 I0 J0.476
G2 X201.626 Y61.588 I0 J-0.476
G1 X201.436 Y61.588
G2 X201.436 Y62.54 I0 J0.476
G2 X201.436 Y61.588 I0 J-0.476
G1 X201.245 Y61.588
G2 X201.245 Y62.54 I0 J0.476
G2 X201.245 Y61.588 I0 J-0.476
G1 X201.055 Y61.588
G2 X201.055 Y62.54 I0 J0.476
G2 X201.055 Y61.588 I0 J-0.476
G1 X200.864 Y61.588
G2 X200.864 Y62.54 I0 J0.476
G2 X200.864 Y61.588 I0 J-0.476
G1 X200.674 Y61.588
G2 X200.674 Y62.54 I0 J0.476
G2 X200.674 Y61.588 I0 J-0.476
G1 X200.483 Y61.588
G2 X200.483 Y62.54 I0 J0.476
G2 X200.483 Y61.588 I0 J-0.476
G1 X200.293 Y61.588
G2 X200.293 Y62.54 I0 J0.476
G2 X200.293 Y61.588 I0 J-0.476
G1 X200.102 Y61.588
G2 X200.102 Y62.54 I0 J0.476
G2 X200.102 Y61.588 I0 J-0.476
G1 X199.912 Y61.588
G2 X199.912 Y62.54 I0 J0.476
G2 X199.912 Y61.588 I0 J-0.476
G1 X199.721 Y61.588
G2 X199.721 Y62.54 I0 J0.476
G2 X199.721 Y61.588 I0 J-0.476
G1 X199.531 Y61.588
G2 X199.531 Y62.54 I0 J0.476
G2 X199.531 Y61.588 I0 J-0.476
G1 X199.34 Y61.588
G2 X199.34 Y62.54 I0 J0.476
G2 X199.34 Y61.588 I0 J-0.476
G1 X199.15 Y61.588
G2 X199.15 Y62.54 I0 J0.476
G2 X199.15 Y61.588 I0 J-0.476
G1 X198.959 Y61.588
G2 X198.959 Y62.54 I0 J0.476
G2 X198.959 Y61.588 I0 J-0.476
G1 X198.769 Y61.588
G2 X198.769 Y62.54 I0 J0.476
G2 X198.769 Y61.588 I0 J-0.476
G1 X198.578 Y61.588
G2 X198.578 Y62.54 I0 J0.476
G2 X198.578 Y61.588 I0 J-0.476
G1 X198.388 Y61.588
G2 X198.388 Y62.54 I0 J0.476
G2 X198.388 Y61.588 I0 J-0.476
G1 X198.197 Y61.588
G2 X198.197 Y62.54 I0 J0.476
G2 X198.197 Y61.588 I0 J-0.476
G1 X198.007 Y61.588
G2 X198.007 Y62.54 I0 J0.476
G2 X198.007 Y61.588 I0 J-0.476
G1 X197.816 Y61.588
G2 X197.816 Y62.54 I0 J0.476
G2 X197.816 Y61.588 I0 J-0.476
G1 X197.626 Y61.588
G2 X197.626 Y62.54 I0 J0.476
G2 X197.626 Y61.588 I0 J-0.476
G1 X197.435 Y61.588
G2 X197.435 Y62.54 I0 J0.476
G2 X197.435 Y61.588 I0 J-0.476
G1 X197.245 Y61.588
G2 X197.245 Y62.54 I0 J0.476
G2 X197.245 Y61.588 I0 J-0.476
G1 X197.054 Y61.588
G2 X197.054 Y62.54 I0 J0.476
G2 X197.054 Y61.588 I0 J-0.476
G1 X196.864 Y61.588
G2 X196.864 Y62.54 I0 J0.476
G2 X196.864 Y61.588 I0 J-0.476
G1 X196.673 Y61.588
G2 X196.673 Y62.54 I0 J0.476
G2 X196.673 Y61.588 I0 J-0.476
G1 X196.483 Y61.588
G2 X196.483 Y62.54 I0 J0.476
G2 X196.483 Y61.588 I0 J-0.476
G1 X196.292 Y61.588
G2 X196.292 Y62.54 I0 J0.476
G2 X196.292 Y61.588 I-0 J-0.476
G1 X196.102 Y61.588
G2 X196.102 Y62.54 I0 J0.476
G2 X196.102 Y61.588 I0 J-0.476
G1 X195.911 Y61.588
G2 X195.911 Y62.54 I0 J0.476
G2 X195.911 Y61.588 I0 J-0.476
G1 X195.721 Y61.588
G2 X195.721 Y62.54 I0 J0.476
G2 X195.721 Y61.588 I0 J-0.476
G1 X195.53 Y61.588
G2 X195.53 Y62.54 I0 J0.476
G2 X195.53 Y61.588 I0 J-0.476
G1 X195.34 Y61.588
G2 X195.34 Y62.54 I0 J0.476
G2 X195.34 Y61.588 I0 J-0.476
G1 X195.149 Y61.588
G2 X195.149 Y62.54 I0 J0.476
G2 X195.149 Y61.588 I0 J-0.476
G1 X194.959 Y61.588
G2 X194.959 Y62.54 I0 J0.476
G2 X194.959 Y61.588 I0 J-0.476
G1 X194.768 Y61.588
G2 X194.768 Y62.54 I0 J0.476
G2 X194.768 Y61.588 I0 J-0.476
G1 X194.578 Y61.588
G2 X194.578 Y62.54 I0 J0.476
G2 X194.578 Y61.588 I0 J-0.476
G1 X194.387 Y61.588
G2 X194.387 Y62.54 I0 J0.476
G2 X194.387 Y61.588 I0 J-0.476
G1 X194.197 Y61.588
G2 X194.197 Y62.54 I0 J0.476
G2 X194.197 Y61.588 I0 J-0.476
G1 X194.006 Y61.588
G2 X194.006 Y62.54 I0 J0.476
G2 X194.006 Y61.588 I0 J-0.476
G1 X193.816 Y61.588
G2 X193.816 Y62.54 I0 J0.476
G2 X193.816 Y61.588 I0 J-0.476
G1 X193.625 Y61.588
G2 X193.625 Y62.54 I0 J0.476
G2 X193.625 Y61.588 I0 J-0.476
G1 X193.435 Y61.588
G2 X193.435 Y62.54 I0 J0.476
G2 X193.435 Y61.588 I0 J-0.476
G1 X193.244 Y61.588
G2 X193.244 Y62.54 I0 J0.476
G2 X193.244 Y61.588 I0 J-0.476
G1 X193.054 Y61.588
G2 X193.054 Y62.54 I0 J0.476
G2 X193.054 Y61.588 I0 J-0.476
G1 X192.863 Y61.588
G2 X192.863 Y62.54 I0 J0.476
G2 X192.863 Y61.588 I0 J-0.476
G1 X192.673 Y61.588
G2 X192.673 Y62.54 I0 J0.476
G2 X192.673 Y61.588 I0 J-0.476
G1 X192.482 Y61.588
G2 X192.482 Y62.54 I0 J0.476
G2 X192.482 Y61.588 I0 J-0.476
G1 X192.292 Y61.588
G2 X192.292 Y62.54 I0 J0.476
G2 X192.292 Y61.588 I0 J-0.476
G1 X192.101 Y61.588
G2 X192.101 Y62.54 I0 J0.476
G2 X192.101 Y61.588 I0 J-0.476
G1 X191.911 Y61.588
G2 X191.911 Y62.54 I0 J0.476
G2 X191.911 Y61.588 I0 J-0.476
G1 X191.72 Y61.588
G2 X191.72 Y62.54 I0 J0.476
G2 X191.72 Y61.588 I0 J-0.476
G1 X191.53 Y61.588
G2 X191.53 Y62.54 I0 J0.476
G2 X191.53 Y61.588 I0 J-0.476
G1 X191.339 Y61.588
G2 X191.339 Y62.54 I0 J0.476
G2 X191.339 Y61.588 I0 J-0.476
G1 X191.149 Y61.588
G2 X191.149 Y62.54 I0 J0.476
G2 X191.149 Y61.588 I0 J-0.476
G1 X190.958 Y61.588
G2 X190.958 Y62.54 I0 J0.476
G2 X190.958 Y61.588 I0 J-0.476
G1 X190.768 Y61.588
G2 X190.768 Y62.54 I0 J0.476
G2 X190.768 Y61.588 I0 J-0.476
G1 X190.577 Y61.588
G2 X190.577 Y62.54 I0 J0.476
G2 X190.577 Y61.588 I0 J-0.476
G1 X190.387 Y61.588
G2 X190.387 Y62.54 I0 J0.476
G2 X190.387 Y61.588 I0 J-0.476
G1 X190.196 Y61.588
G2 X190.196 Y62.54 I0 J0.476
G2 X190.196 Y61.588 I0 J-0.476
G1 X190.006 Y61.588
G2 X190.006 Y62.54 I0 J0.476
G2 X190.006 Y61.588 I0 J-0.476
G1 X189.815 Y61.588
G2 X189.815 Y62.54 I0 J0.476
G2 X189.815 Y61.588 I0 J-0.476
G1 X189.625 Y61.588
G2 X189.625 Y62.54 I0 J0.476
G2 X189.625 Y61.588 I0 J-0.476
G1 X189.434 Y61.588
G2 X189.434 Y62.54 I0 J0.476
G2 X189.434 Y61.588 I0 J-0.476
G1 X189.244 Y61.588
G2 X189.244 Y62.54 I0 J0.476
G2 X189.244 Y61.588 I0 J-0.476
G1 X189.053 Y61.588
G2 X189.053 Y62.54 I0 J0.476
G2 X189.053 Y61.588 I0 J-0.476
G1 X188.863 Y61.588
G2 X188.863 Y62.54 I0 J0.476
G2 X188.863 Y61.588 I0 J-0.476
G1 X188.672 Y61.588
G2 X188.672 Y62.54 I0 J0.476
G2 X188.672 Y61.588 I0 J-0.476
G1 X188.482 Y61.588
G2 X188.482 Y62.54 I0 J0.476
G2 X188.482 Y61.588 I0 J-0.476
G1 X188.291 Y61.588
G2 X188.291 Y62.54 I0 J0.476
G2 X188.291 Y61.588 I0 J-0.476
G1 X188.101 Y61.588
G2 X188.101 Y62.54 I0 J0.476
G2 X188.101 Y61.588 I0 J-0.476
G1 X187.91 Y61.588
G2 X187.91 Y62.54 I0 J0.476
G2 X187.91 Y61.588 I0 J-0.476
G1 X187.72 Y61.588
G2 X187.72 Y62.54 I0 J0.476
G2 X187.72 Y61.588 I0 J-0.476
G1 X187.529 Y61.588
G2 X187.529 Y62.54 I0 J0.476
G2 X187.529 Y61.588 I0 J-0.476
G1 X187.339 Y61.588
G2 X187.339 Y62.54 I0 J0.476
G2 X187.339 Y61.588 I0 J-0.476
G1 X187.148 Y61.588
G2 X187.148 Y62.54 I0 J0.476
G2 X187.148 Y61.588 I0 J-0.476
G1 X186.958 Y61.588
G2 X186.958 Y62.54 I0 J0.476
G2 X186.958 Y61.588 I0 J-0.476
G1 X186.767 Y61.588
G2 X186.767 Y62.54 I0 J0.476
G2 X186.767 Y61.588 I0 J-0.476
G1 X186.577 Y61.588
G2 X186.577 Y62.54 I0 J0.476
G2 X186.577 Y61.588 I0 J-0.476
G1 X186.386 Y61.588
G2 X186.386 Y62.54 I0 J0.476
G2 X186.386 Y61.588 I0 J-0.476
G1 X186.196 Y61.588
G2 X186.196 Y62.54 I0 J0.476
G2 X186.196 Y61.588 I0 J-0.476
G1 X186.005 Y61.588
G2 X186.005 Y62.54 I0 J0.476
G2 X186.005 Y61.588 I0 J-0.476
G1 X185.815 Y61.588
G2 X185.815 Y62.54 I0 J0.476
G2 X185.815 Y61.588 I0 J-0.476
G1 X185.624 Y61.588
G2 X185.624 Y62.54 I0 J0.476
G2 X185.624 Y61.588 I0 J-0.476
G1 X185.434 Y61.588
G2 X185.434 Y62.54 I0 J0.476
G2 X185.434 Y61.588 I0 J-0.476
G1 X185.243 Y61.588
G2 X185.243 Y62.54 I0 J0.476
G2 X185.243 Y61.588 I0 J-0.476
G1 X185.053 Y61.588
G2 X185.053 Y62.54 I0 J0.476
G2 X185.053 Y61.588 I0 J-0.476
G1 X184.862 Y61.588
G2 X184.862 Y62.54 I0 J0.476
G2 X184.862 Y61.588 I0 J-0.476
G1 X184.672 Y61.588
G2 X184.672 Y62.54 I0 J0.476
G2 X184.672 Y61.588 I0 J-0.476
G1 X184.481 Y61.588
G2 X184.481 Y62.54 I0 J0.476
G2 X184.481 Y61.588 I0 J-0.476
G1 X184.291 Y61.588
G2 X184.291 Y62.54 I0 J0.476
G2 X184.291 Y61.588 I0 J-0.476
G1 X184.1 Y61.588
G2 X184.1 Y62.54 I0 J0.476
G2 X184.1 Y61.588 I0 J-0.476
G1 X183.91 Y61.588
G2 X183.91 Y62.54 I0 J0.476
G2 X183.91 Y61.588 I0 J-0.476
G1 X183.719 Y61.588
G2 X183.719 Y62.54 I0 J0.476
G2 X183.719 Y61.588 I0 J-0.476
G1 X183.529 Y61.588
G2 X183.529 Y62.54 I0 J0.476
G2 X183.529 Y61.588 I0 J-0.476
G1 X183.338 Y61.588
G2 X183.338 Y62.54 I0 J0.476
G2 X183.338 Y61.588 I0 J-0.476
G1 X183.148 Y61.588
G2 X183.148 Y62.54 I0 J0.476
G2 X183.148 Y61.588 I0 J-0.476
G1 X182.957 Y61.588
G2 X182.957 Y62.54 I0 J0.476
G2 X182.957 Y61.588 I0 J-0.476
G1 X182.767 Y61.588
G2 X182.767 Y62.54 I0 J0.476
G2 X182.767 Y61.588 I0 J-0.476
G1 X182.576 Y61.588
G2 X182.576 Y62.54 I0 J0.476
G2 X182.576 Y61.588 I0 J-0.476
G1 X182.386 Y61.588
G2 X182.386 Y62.54 I0 J0.476
G2 X182.386 Y61.588 I0 J-0.476
G1 X182.195 Y61.588
G2 X182.195 Y62.54 I0 J0.476
G2 X182.195 Y61.588 I0 J-0.476
G1 X182.005 Y61.588
G2 X182.005 Y62.54 I0 J0.476
G2 X182.005 Y61.588 I0 J-0.476
G1 X181.814 Y61.588
G2 X181.814 Y62.54 I0 J0.476
G2 X181.814 Y61.588 I0 J-0.476
G1 X181.624 Y61.588
G2 X181.624 Y62.54 I0 J0.476
G2 X181.624 Y61.588 I0 J-0.476
G1 X181.433 Y61.588
G2 X181.433 Y62.54 I0 J0.476
G2 X181.433 Y61.588 I0 J-0.476
G1 X181.243 Y61.588
G2 X181.243 Y62.54 I0 J0.476
G2 X181.243 Y61.588 I0 J-0.476
G1 X181.052 Y61.588
G2 X181.052 Y62.54 I0 J0.476
G2 X181.052 Y61.588 I0 J-0.476
G1 X180.862 Y61.588
G2 X180.862 Y62.54 I0 J0.476
G2 X180.862 Y61.588 I0 J-0.476
G1 X180.671 Y61.588
G2 X180.671 Y62.54 I0 J0.476
G2 X180.671 Y61.588 I0 J-0.476
G1 X180.481 Y61.588
G2 X180.481 Y62.54 I0 J0.476
G2 X180.481 Y61.588 I0 J-0.476
G1 X180.29 Y61.588
G2 X180.29 Y62.54 I0 J0.476
G2 X180.29 Y61.588 I0 J-0.476
G1 X180.1 Y61.588
G2 X180.1 Y62.54 I0 J0.476
G2 X180.1 Y61.588 I0 J-0.476
G1 X179.909 Y61.588
G2 X179.909 Y62.54 I0 J0.476
G2 X179.909 Y61.588 I0 J-0.476
G1 X179.719 Y61.588
G2 X179.719 Y62.54 I0 J0.476
G2 X179.719 Y61.588 I0 J-0.476
G1 X179.528 Y61.588
G2 X179.528 Y62.54 I0 J0.476
G2 X179.528 Y61.588 I0 J-0.476
G1 X179.338 Y61.588
G2 X179.338 Y62.54 I0 J0.476
G2 X179.338 Y61.588 I0 J-0.476
G1 X179.147 Y61.588
G2 X179.147 Y62.54 I0 J0.476
G2 X179.147 Y61.588 I0 J-0.476
G1 X178.957 Y61.588
G2 X178.957 Y62.54 I0 J0.476
G2 X178.957 Y61.588 I0 J-0.476
G1 X178.766 Y61.588
G2 X178.766 Y62.54 I0 J0.476
G2 X178.766 Y61.588 I0 J-0.476
G1 X178.576 Y61.588
G2 X178.576 Y62.54 I0 J0.476
G2 X178.576 Y61.588 I0 J-0.476
G1 X178.385 Y61.588
G2 X178.385 Y62.54 I0 J0.476
G2 X178.385 Y61.588 I0 J-0.476
G1 X178.195 Y61.588
G2 X178.195 Y62.54 I0 J0.476
G2 X178.195 Y61.588 I0 J-0.476
G1 X178.004 Y61.588
G2 X178.004 Y62.54 I0 J0.476
G2 X178.004 Y61.588 I0 J-0.476
G1 X177.814 Y61.588
G2 X177.814 Y62.54 I0 J0.476
G2 X177.814 Y61.588 I0 J-0.476
G1 X177.623 Y61.588
G2 X177.623 Y62.54 I0 J0.476
G2 X177.623 Y61.588 I0 J-0.476
G1 X177.433 Y61.588
G2 X177.433 Y62.54 I0 J0.476
G2 X177.433 Y61.588 I0 J-0.476
G1 X177.242 Y61.588
G2 X177.242 Y62.54 I0 J0.476
G2 X177.242 Y61.588 I0 J-0.476
G1 X177.052 Y61.588
G2 X177.052 Y62.54 I0 J0.476
G2 X177.052 Y61.588 I0 J-0.476
G1 X176.861 Y61.588
G2 X176.861 Y62.54 I0 J0.476
G2 X176.861 Y61.588 I0 J-0.476
G1 X176.671 Y61.588
G2 X176.671 Y62.54 I0 J0.476
G2 X176.671 Y61.588 I0 J-0.476
G1 X176.48 Y61.588
G2 X176.48 Y62.54 I0 J0.476
G2 X176.48 Y61.588 I0 J-0.476
G1 X176.29 Y61.588
G2 X176.29 Y62.54 I0 J0.476
G2 X176.29 Y61.588 I0 J-0.476
G1 X176.099 Y61.588
G2 X176.099 Y62.54 I0 J0.476
G2 X176.099 Y61.588 I0 J-0.476
G1 X175.909 Y61.588
G2 X175.909 Y62.54 I0 J0.476
G2 X175.909 Y61.588 I0 J-0.476
G1 X175.718 Y61.588
G2 X175.718 Y62.54 I0 J0.476
G2 X175.718 Y61.588 I0 J-0.476
G1 X175.528 Y61.588
G2 X175.528 Y62.54 I0 J0.476
G2 X175.528 Y61.588 I0 J-0.476
G1 X175.337 Y61.588
G2 X175.337 Y62.54 I0 J0.476
G2 X175.337 Y61.588 I0 J-0.476
G1 X175.147 Y61.588
G2 X175.147 Y62.54 I0 J0.476
G2 X175.147 Y61.588 I0 J-0.476
G1 X174.956 Y61.588
G2 X174.956 Y62.54 I0 J0.476
G2 X174.956 Y61.588 I0 J-0.476
G1 X174.766 Y61.588
G2 X174.766 Y62.54 I0 J0.476
G2 X174.766 Y61.588 I0 J-0.476
G1 X174.575 Y61.588
G2 X174.575 Y62.54 I0 J0.476
G2 X174.575 Y61.588 I0 J-0.476
G1 X174.385 Y61.588
G2 X174.385 Y62.54 I0 J0.476
G2 X174.385 Y61.588 I0 J-0.476
G1 X174.194 Y61.588
G2 X174.194 Y62.54 I0 J0.476
G2 X174.194 Y61.588 I0 J-0.476
G1 X174.004 Y61.588
G2 X174.004 Y62.54 I0 J0.476
G2 X174.004 Y61.588 I0 J-0.476
G1 X173.813 Y61.588
G2 X173.813 Y62.54 I0 J0.476
G2 X173.813 Y61.588 I0 J-0.476
G1 X173.623 Y61.588
G2 X173.623 Y62.54 I0 J0.476
G2 X173.623 Y61.588 I0 J-0.476
G1 X173.432 Y61.588
G2 X173.432 Y62.54 I0 J0.476
G2 X173.432 Y61.588 I0 J-0.476
G1 X173.242 Y61.588
G2 X173.242 Y62.54 I0 J0.476
G2 X173.242 Y61.588 I0 J-0.476
G1 X173.051 Y61.588
G2 X173.051 Y62.54 I0 J0.476
G2 X173.051 Y61.588 I0 J-0.476
G1 X172.861 Y61.588
G2 X172.861 Y62.54 I0 J0.476
G2 X172.861 Y61.588 I0 J-0.476
G1 X172.67 Y61.588
G2 X172.67 Y62.54 I0 J0.476
G2 X172.67 Y61.588 I0 J-0.476
G1 X172.48 Y61.588
G2 X172.48 Y62.54 I0 J0.476
G2 X172.48 Y61.588 I0 J-0.476
G1 X172.289 Y61.588
G2 X172.289 Y62.54 I0 J0.476
G2 X172.289 Y61.588 I0 J-0.476
G1 X172.099 Y61.588
G2 X172.099 Y62.54 I0 J0.476
G2 X172.099 Y61.588 I0 J-0.476
G1 X171.908 Y61.588
G2 X171.908 Y62.54 I0 J0.476
G2 X171.908 Y61.588 I0 J-0.476
G1 X171.718 Y61.588
G2 X171.718 Y62.54 I0 J0.476
G2 X171.718 Y61.588 I0 J-0.476
G1 X171.527 Y61.588
G2 X171.527 Y62.54 I0 J0.476
G2 X171.527 Y61.588 I0 J-0.476
G1 X171.337 Y61.588
G2 X171.337 Y62.54 I0 J0.476
G2 X171.337 Y61.588 I0 J-0.476
G1 X171.146 Y61.588
G2 X171.146 Y62.54 I0 J0.476
G2 X171.146 Y61.588 I0 J-0.476
G1 X170.956 Y61.588
G2 X170.956 Y62.54 I0 J0.476
G2 X170.956 Y61.588 I0 J-0.476
G1 X170.765 Y61.588
G2 X170.765 Y62.54 I0 J0.476
G2 X170.765 Y61.588 I0 J-0.476
G1 X170.575 Y61.588
G2 X170.575 Y62.54 I0 J0.476
G2 X170.575 Y61.588 I0 J-0.476
G1 X170.384 Y61.588
G2 X170.384 Y62.54 I0 J0.476
G2 X170.384 Y61.588 I0 J-0.476
G1 X170.194 Y61.588
G2 X170.194 Y62.54 I0 J0.476
G2 X170.194 Y61.588 I0 J-0.476
G1 X170.003 Y61.588
G2 X170.003 Y62.54 I0 J0.476
G2 X170.003 Y61.588 I0 J-0.476
G1 X169.813 Y61.588
G2 X169.813 Y62.54 I0 J0.476
G2 X169.813 Y61.588 I0 J-0.476
G1 X169.622 Y61.588
G2 X169.622 Y62.54 I0 J0.476
G2 X169.622 Y61.588 I0 J-0.476
G1 X169.432 Y61.588
G2 X169.432 Y62.54 I0 J0.476
G2 X169.432 Y61.588 I0 J-0.476
G1 X169.241 Y61.588
G2 X169.241 Y62.54 I0 J0.476
G2 X169.241 Y61.588 I0 J-0.476
G1 X169.051 Y61.588
G2 X169.051 Y62.54 I0 J0.476
G2 X169.051 Y61.588 I0 J-0.476
G1 X168.86 Y61.588
G2 X168.86 Y62.54 I0 J0.476
G2 X168.86 Y61.588 I0 J-0.476
G1 X168.67 Y61.588
G2 X168.67 Y62.54 I0 J0.476
G2 X168.67 Y61.588 I0 J-0.476
G1 X168.479 Y61.588
G2 X168.479 Y62.54 I0 J0.476
G2 X168.479 Y61.588 I0 J-0.476
G1 X168.289 Y61.588
G2 X168.289 Y62.54 I0 J0.476
G2 X168.289 Y61.588 I0 J-0.476
G1 X168.098 Y61.588
G2 X168.098 Y62.54 I0 J0.476
G2 X168.098 Y61.588 I0 J-0.476
G1 X167.908 Y61.588
G2 X167.908 Y62.54 I0 J0.476
G2 X167.908 Y61.588 I0 J-0.476
G1 X167.717 Y61.588
G2 X167.717 Y62.54 I0 J0.476
G2 X167.717 Y61.588 I0 J-0.476
G1 X167.527 Y61.588
G2 X167.527 Y62.54 I0 J0.476
G2 X167.527 Y61.588 I0 J-0.476
G1 X167.336 Y61.588
G2 X167.336 Y62.54 I0 J0.476
G2 X167.336 Y61.588 I0 J-0.476
G1 X167.146 Y61.588
G2 X167.146 Y62.54 I0 J0.476
G2 X167.146 Y61.588 I0 J-0.476
G1 X166.955 Y61.588
G2 X166.955 Y62.54 I0 J0.476
G2 X166.955 Y61.588 I0 J-0.476
G1 X166.765 Y61.588
G2 X166.765 Y62.54 I0 J0.476
G2 X166.765 Y61.588 I0 J-0.476
G1 X166.574 Y61.588
G2 X166.574 Y62.54 I0 J0.476
G2 X166.574 Y61.588 I0 J-0.476
G1 X166.384 Y61.588
G2 X166.384 Y62.54 I0 J0.476
G2 X166.384 Y61.588 I-0 J-0.476
G1 X166.193 Y61.588
G2 X166.193 Y62.54 I0 J0.476
G2 X166.193 Y61.588 I0 J-0.476
G1 X166.003 Y61.588
G2 X166.003 Y62.54 I0 J0.476
G2 X166.003 Y61.588 I0 J-0.476
G1 X165.812 Y61.588
G2 X165.812 Y62.54 I0 J0.476
G2 X165.812 Y61.588 I-0 J-0.476
G1 X165.622 Y61.588
G2 X165.622 Y62.54 I0 J0.476
G2 X165.622 Y61.588 I0 J-0.476
G1 X165.431 Y61.588
G2 X165.431 Y62.54 I0 J0.476
G2 X165.431 Y61.588 I-0 J-0.476
G1 X165.241 Y61.588
G2 X165.241 Y62.54 I0 J0.476
G2 X165.241 Y61.588 I0 J-0.476
G1 X165.05 Y61.588
G2 X165.05 Y62.54 I0 J0.476
G2 X165.05 Y61.588 I0 J-0.476
G1 X164.86 Y61.588
G2 X164.86 Y62.54 I0 J0.476
G2 X164.86 Y61.588 I-0 J-0.476
G1 X164.669 Y61.588
G2 X164.669 Y62.54 I0 J0.476
G2 X164.669 Y61.588 I0 J-0.476
G1 X164.479 Y61.588
G2 X164.479 Y62.54 I0 J0.476
G2 X164.479 Y61.588 I0 J-0.476
G1 X164.288 Y61.588
G2 X164.288 Y62.54 I0 J0.476
G2 X164.288 Y61.588 I-0 J-0.476
G1 X164.098 Y61.588
G2 X164.098 Y62.54 I0 J0.476
G2 X164.098 Y61.588 I0 J-0.476
G1 X163.907 Y61.588
G2 X163.907 Y62.54 I0 J0.476
G2 X163.907 Y61.588 I0 J-0.476
G1 X163.717 Y61.588
G2 X163.717 Y62.54 I0 J0.476
G2 X163.717 Y61.588 I-0 J-0.476
G1 X163.526 Y61.588
G2 X163.526 Y62.54 I0 J0.476
G2 X163.526 Y61.588 I0 J-0.476
G1 X163.336 Y61.588
G2 X163.336 Y62.54 I0 J0.476
G2 X163.336 Y61.588 I0 J-0.476
G1 X163.145 Y61.588
G2 X163.145 Y62.54 I0 J0.476
G2 X163.145 Y61.588 I0 J-0.476
G1 X162.955 Y61.588
G2 X162.955 Y62.54 I0 J0.476
G2 X162.955 Y61.588 I0 J-0.476
G1 X162.764 Y61.588
G2 X162.764 Y62.54 I0 J0.476
G2 X162.764 Y61.588 I-0 J-0.476
G1 X162.574 Y61.588
G2 X162.574 Y62.54 I0 J0.476
G2 X162.574 Y61.588 I0 J-0.476
G1 X162.383 Y61.588
G2 X162.383 Y62.54 I0 J0.476
G2 X162.383 Y61.588 I0 J-0.476
G1 X162.193 Y61.588
G2 X162.193 Y62.54 I0 J0.476
G2 X162.193 Y61.588 I-0 J-0.476
G1 X162.002 Y61.588
G2 X162.002 Y62.54 I0 J0.476
G2 X162.002 Y61.588 I0 J-0.476
G1 X161.812 Y61.588
G2 X161.812 Y62.54 I0 J0.476
G2 X161.812 Y61.588 I0 J-0.476
G1 X161.621 Y61.588
G2 X161.621 Y62.54 I0 J0.476
G2 X161.621 Y61.588 I-0 J-0.476
G1 X161.431 Y61.588
G2 X161.431 Y62.54 I0 J0.476
G2 X161.431 Y61.588 I0 J-0.476
G1 X161.24 Y61.588
G2 X161.24 Y62.54 I0 J0.476
G2 X161.24 Y61.588 I-0 J-0.476
G1 X161.05 Y61.588
G2 X161.05 Y62.54 I0 J0.476
G2 X161.05 Y61.588 I0 J-0.476
G1 X160.859 Y61.588
G2 X160.859 Y62.54 I0 J0.476
G2 X160.859 Y61.588 I0 J-0.476
G1 X160.669 Y61.588
G2 X160.669 Y62.54 I0 J0.476
G2 X160.669 Y61.588 I-0 J-0.476
G1 X160.478 Y61.588
G2 X160.478 Y62.54 I0 J0.476
G2 X160.478 Y61.588 I0 J-0.476
G1 X160.288 Y61.588
G2 X160.288 Y62.54 I0 J0.476
G2 X160.288 Y61.588 I0 J-0.476
G1 X160.097 Y61.588
G2 X160.097 Y62.54 I0 J0.476
G2 X160.097 Y61.588 I0 J-0.476
G1 X159.907 Y61.588
G2 X159.907 Y62.54 I0 J0.476
G2 X159.907 Y61.588 I0 J-0.476
G1 X159.716 Y61.588
G2 X159.716 Y62.54 I0 J0.476
G2 X159.716 Y61.588 I0 J-0.476
G1 X159.526 Y61.588
G2 X159.526 Y62.54 I0 J0.476
G2 X159.526 Y61.588 I0 J-0.476
G1 X159.335 Y61.588
G2 X159.335 Y62.54 I0 J0.476
G2 X159.335 Y61.588 I0 J-0.476
G1 X159.145 Y61.588
G2 X159.145 Y62.54 I0 J0.476
G2 X159.145 Y61.588 I0 J-0.476
G1 X158.954 Y61.588
G2 X158.954 Y62.54 I0 J0.476
G2 X158.954 Y61.588 I-0 J-0.476
G1 X158.764 Y61.588
G2 X158.764 Y62.54 I0 J0.476
G2 X158.764 Y61.588 I0 J-0.476
G1 X158.573 Y61.588
G2 X158.573 Y62.54 I0 J0.476
G2 X158.573 Y61.588 I0 J-0.476
G1 X158.383 Y61.588
G2 X158.383 Y62.54 I0 J0.476
G2 X158.383 Y61.588 I-0 J-0.476
G1 X158.192 Y61.588
G2 X158.192 Y62.54 I0 J0.476
G2 X158.192 Y61.588 I0 J-0.476
G1 X158.002 Y61.588
G2 X158.002 Y62.54 I0 J0.476
G2 X158.002 Y61.588 I0 J-0.476
G1 X157.811 Y61.588
G2 X157.811 Y62.54 I0 J0.476
G2 X157.811 Y61.588 I0 J-0.476
G1 X157.621 Y61.588
G2 X157.621 Y62.54 I0 J0.476
G2 X157.621 Y61.588 I0 J-0.476
G1 X157.43 Y61.588
G2 X157.43 Y62.54 I0 J0.476
G2 X157.43 Y61.588 I0 J-0.476
G1 X157.24 Y61.588
G2 X157.24 Y62.54 I0 J0.476
G2 X157.24 Y61.588 I0 J-0.476
G1 X157.049 Y61.588
G2 X157.049 Y62.54 I0 J0.476
G2 X157.049 Y61.588 I-0 J-0.476
G1 X156.859 Y61.588
G2 X156.859 Y62.54 I0 J0.476
G2 X156.859 Y61.588 I0 J-0.476
G1 X156.668 Y61.588
G2 X156.668 Y62.54 I0 J0.476
G2 X156.668 Y61.588 I0 J-0.476
G1 X156.478 Y61.588
G2 X156.478 Y62.54 I0 J0.476
G2 X156.478 Y61.588 I0 J-0.476
G1 X156.287 Y61.588
G2 X156.287 Y62.54 I0 J0.476
G2 X156.287 Y61.588 I0 J-0.476
G1 X156.097 Y61.588
G2 X156.097 Y62.54 I0 J0.476
G2 X156.097 Y61.588 I-0 J-0.476
G1 X155.906 Y61.588
G2 X155.906 Y62.54 I0 J0.476
G2 X155.906 Y61.588 I0 J-0.476
G1 X155.716 Y61.588
G2 X155.716 Y62.54 I0 J0.476
G2 X155.716 Y61.588 I0 J-0.476
G1 X155.525 Y61.588
G2 X155.525 Y62.54 I0 J0.476
G2 X155.525 Y61.588 I0 J-0.476
G1 X155.335 Y61.588
G2 X155.335 Y62.54 I0 J0.476
G2 X155.335 Y61.588 I0 J-0.476
G1 X155.144 Y61.588
G2 X155.144 Y62.54 I0 J0.476
G2 X155.144 Y61.588 I-0 J-0.476
G1 X154.954 Y61.588
G2 X154.954 Y62.54 I0 J0.476
G2 X154.954 Y61.588 I0 J-0.476
G1 X154.763 Y61.588
G2 X154.763 Y62.54 I0 J0.476
G2 X154.763 Y61.588 I0 J-0.476
G1 X154.573 Y61.588
G2 X154.573 Y62.54 I0 J0.476
G2 X154.573 Y61.588 I0 J-0.476
G1 X154.382 Y61.588
G2 X154.382 Y62.54 I0 J0.476
G2 X154.382 Y61.588 I0 J-0.476
G1 X154.192 Y61.588
G2 X154.192 Y62.54 I0 J0.476
G2 X154.192 Y61.588 I-0 J-0.476
G1 X154.001 Y61.588
G2 X154.001 Y62.54 I0 J0.476
G2 X154.001 Y61.588 I0 J-0.476
G1 X153.811 Y61.588
G2 X153.811 Y62.54 I0 J0.476
G2 X153.811 Y61.588 I0 J-0.476
G1 X153.62 Y61.588
G2 X153.62 Y62.54 I0 J0.476
G2 X153.62 Y61.588 I-0 J-0.476
G1 X153.43 Y61.588
G2 X153.43 Y62.54 I0 J0.476
G2 X153.43 Y61.588 I0 J-0.476
G1 X153.239 Y61.588
G2 X153.239 Y62.54 I0 J0.476
G2 X153.239 Y61.588 I0 J-0.476
G1 X153.049 Y61.588
G2 X153.049 Y62.54 I0 J0.476
G2 X153.049 Y61.588 I0 J-0.476
G1 X152.858 Y61.588
G2 X152.858 Y62.54 I0 J0.476
G2 X152.858 Y61.588 I0 J-0.476
G1 X152.668 Y61.588
G2 X152.668 Y62.54 I0 J0.476
G2 X152.668 Y61.588 I0 J-0.476
G1 X152.477 Y61.588
G2 X152.477 Y62.54 I0 J0.476
G2 X152.477 Y61.588 I0 J-0.476
G1 X152.287 Y61.588
G2 X152.287 Y62.54 I0 J0.476
G2 X152.287 Y61.588 I-0 J-0.476
G1 X152.096 Y61.588
G2 X152.096 Y62.54 I0 J0.476
G2 X152.096 Y61.588 I0 J-0.476
G1 X151.906 Y61.588
G2 X151.906 Y62.54 I0 J0.476
G2 X151.906 Y61.588 I0 J-0.476
G1 X151.715 Y61.588
G2 X151.715 Y62.54 I0 J0.476
G2 X151.715 Y61.588 I0 J-0.476
G1 X151.525 Y61.588
G2 X151.525 Y62.54 I0 J0.476
G2 X151.525 Y61.588 I0 J-0.476
G1 X151.334 Y61.588
G2 X151.334 Y62.54 I0 J0.476
G2 X151.334 Y61.588 I-0 J-0.476
G1 X151.144 Y61.588
G2 X151.144 Y62.54 I0 J0.476
G2 X151.144 Y61.588 I0 J-0.476
G1 X150.953 Y61.588
G2 X150.953 Y62.54 I0 J0.476
G2 X150.953 Y61.588 I0 J-0.476
G1 X150.763 Y61.588
G2 X150.763 Y62.54 I0 J0.476
G2 X150.763 Y61.588 I0 J-0.476
G1 X150.572 Y61.588
G2 X150.572 Y62.54 I0 J0.476
G2 X150.572 Y61.588 I0 J-0.476
G1 X150.382 Y61.588
G2 X150.382 Y62.54 I0 J0.476
G2 X150.382 Y61.588 I-0 J-0.476
G1 X150.191 Y61.588
G2 X150.191 Y62.54 I0 J0.476
G2 X150.191 Y61.588 I0 J-0.476
G1 X150.001 Y61.588
G2 X150.001 Y62.54 I0 J0.476
G2 X150.001 Y61.588 I0 J-0.476
G1 X149.81 Y61.588
G2 X149.81 Y62.54 I0 J0.476
G2 X149.81 Y61.588 I0 J-0.476
G1 X149.62 Y61.588
G2 X149.62 Y62.54 I0 J0.476
G2 X149.62 Y61.588 I0 J-0.476
G1 X149.429 Y61.588
G2 X149.429 Y62.54 I0 J0.476
G2 X149.429 Y61.588 I-0 J-0.476
G1 X149.239 Y61.588
G2 X149.239 Y62.54 I0 J0.476
G2 X149.239 Y61.588 I0 J-0.476
G1 X149.048 Y61.588
G2 X149.048 Y62.54 I0 J0.476
G2 X149.048 Y61.588 I0 J-0.476
G1 X148.858 Y61.588
G2 X148.858 Y62.54 I0 J0.476
G2 X148.858 Y61.588 I-0 J-0.476
G1 X148.667 Y61.588
G2 X148.667 Y62.54 I0 J0.476
G2 X148.667 Y61.588 I0 J-0.476
G1 X148.477 Y61.588
G2 X148.477 Y62.54 I0 J0.476
G2 X148.477 Y61.588 I0 J-0.476
G1 X148.286 Y61.588
G2 X148.286 Y62.54 I0 J0.476
G2 X148.286 Y61.588 I0 J-0.476
G1 X148.096 Y61.588
G2 X148.096 Y62.54 I0 J0.476
G2 X148.096 Y61.588 I0 J-0.476
G1 X147.905 Y61.588
G2 X147.905 Y62.54 I0 J0.476
G2 X147.905 Y61.588 I0 J-0.476
G1 X147.715 Y61.588
G2 X147.715 Y62.54 I0 J0.476
G2 X147.715 Y61.588 I0 J-0.476
G1 X147.524 Y61.588
G2 X147.524 Y62.54 I0 J0.476
G2 X147.524 Y61.588 I-0 J-0.476
G1 X147.334 Y61.588
G2 X147.334 Y62.54 I0 J0.476
G2 X147.334 Y61.588 I0 J-0.476
G1 X147.143 Y61.588
G2 X147.143 Y62.54 I0 J0.476
G2 X147.143 Y61.588 I0 J-0.476
G1 X146.953 Y61.588
G2 X146.953 Y62.54 I0 J0.476
G2 X146.953 Y61.588 I0 J-0.476
G1 X146.762 Y61.588
G2 X146.762 Y62.54 I0 J0.476
G2 X146.762 Y61.588 I0 J-0.476
G1 X146.572 Y61.588
G2 X146.572 Y62.54 I0 J0.476
G2 X146.572 Y61.588 I-0 J-0.476
G1 X146.381 Y61.588
G2 X146.381 Y62.54 I0 J0.476
G2 X146.381 Y61.588 I0 J-0.476
G1 X146.191 Y61.588
G2 X146.191 Y62.54 I0 J0.476
G2 X146.191 Y61.588 I0 J-0.476
G1 X146 Y61.588
G2 X146 Y62.54 I0 J0.476
G2 X146 Y61.588 I0 J-0.476
G1 X145.81 Y61.588
G2 X145.81 Y62.54 I0 J0.476
G2 X145.81 Y61.588 I0 J-0.476
G1 X145.619 Y61.588
G2 X145.619 Y62.54 I0 J0.476
G2 X145.619 Y61.588 I-0 J-0.476
G1 X145.429 Y61.588
G2 X145.429 Y62.54 I0 J0.476
G2 X145.429 Y61.588 I0 J-0.476
G1 X145.238 Y61.588
G2 X145.238 Y62.54 I0 J0.476
G2 X145.238 Y61.588 I0 J-0.476
G1 X145.048 Y61.588
G2 X145.048 Y62.54 I0 J0.476
G2 X145.048 Y61.588 I0 J-0.476
G1 X144.857 Y61.588
G2 X144.857 Y62.54 I0 J0.476
G2 X144.857 Y61.588 I0 J-0.476
G1 X144.667 Y61.588
G2 X144.667 Y62.54 I0 J0.476
G2 X144.667 Y61.588 I-0 J-0.476
G1 X144.476 Y61.588
G2 X144.476 Y62.54 I0 J0.476
G2 X144.476 Y61.588 I0 J-0.476
G1 X144.286 Y61.588
G2 X144.286 Y62.54 I0 J0.476
G2 X144.286 Y61.588 I0 J-0.476
G1 X144.095 Y61.588
G2 X144.095 Y62.54 I0 J0.476
G2 X144.095 Y61.588 I-0 J-0.476
G1 X143.905 Y61.588
G2 X143.905 Y62.54 I0 J0.476
G2 X143.905 Y61.588 I0 J-0.476
G1 X143.714 Y61.588
G2 X143.714 Y62.54 I0 J0.476
G2 X143.714 Y61.588 I0 J-0.476
G1 X143.524 Y61.588
G2 X143.524 Y62.54 I0 J0.476
G2 X143.524 Y61.588 I-0 J-0.476
G1 X143.333 Y61.588
G2 X143.333 Y62.54 I0 J0.476
G2 X143.333 Y61.588 I-0 J-0.476
G1 X143.143 Y61.588
G2 X143.143 Y62.54 I0 J0.476
G2 X143.143 Y61.588 I0 J-0.476
G1 X142.952 Y61.588
G2 X142.952 Y62.54 I0 J0.476
G2 X142.952 Y61.588 I-0 J-0.476
G1 X142.762 Y61.588
G2 X142.762 Y62.54 I0 J0.476
G2 X142.762 Y61.588 I0 J-0.476
G1 X142.571 Y61.588
G2 X142.571 Y62.54 I0 J0.476
G2 X142.571 Y61.588 I0 J-0.476
G1 X142.381 Y61.588
G2 X142.381 Y62.54 I0 J0.476
G2 X142.381 Y61.588 I-0 J-0.476
G1 X142.19 Y61.588
G2 X142.19 Y62.54 I0 J0.476
G2 X142.19 Y61.588 I0 J-0.476
G1 X142 Y61.588
G2 X142 Y62.54 I0 J0.476
G2 X142 Y61.588 I0 J-0.476
G1 X141.809 Y61.588
G2 X141.809 Y62.54 I0 J0.476
G2 X141.809 Y61.588 I0 J-0.476
G1 X141.619 Y61.588
G2 X141.619 Y62.54 I0 J0.476
G2 X141.619 Y61.588 I0 J-0.476
G1 X141.428 Y61.588
G2 X141.428 Y62.54 I0 J0.476
G2 X141.428 Y61.588 I0 J-0.476
G1 X141.238 Y61.588
G2 X141.238 Y62.54 I0 J0.476
G2 X141.238 Y61.588 I0 J-0.476
G1 X141.047 Y61.588
G2 X141.047 Y62.54 I0 J0.476
G2 X141.047 Y61.588 I0 J-0.476
G1 X140.857 Y61.588
G2 X140.857 Y62.54 I0 J0.476
G2 X140.857 Y61.588 I0 J-0.476
G1 X140.666 Y61.588
G2 X140.666 Y62.54 I0 J0.476
G2 X140.666 Y61.588 I-0 J-0.476
G1 X140.476 Y61.588
G2 X140.476 Y62.54 I0 J0.476
G2 X140.476 Y61.588 I0 J-0.476
G1 X140.285 Y61.588
G2 X140.285 Y62.54 I0 J0.476
G2 X140.285 Y61.588 I0 J-0.476
G1 X140.095 Y61.588
G2 X140.095 Y62.54 I0 J0.476
G2 X140.095 Y61.588 I-0 J-0.476
G1 X139.904 Y61.588
G2 X139.904 Y62.54 I0 J0.476
G2 X139.904 Y61.588 I0 J-0.476
G1 X139.714 Y61.588
G2 X139.714 Y62.54 I0 J0.476
G2 X139.714 Y61.588 I0 J-0.476
G1 X139.523 Y61.588
G2 X139.523 Y62.54 I0 J0.476
G2 X139.523 Y61.588 I-0 J-0.476
G1 X139.333 Y61.588
G2 X139.333 Y62.54 I0 J0.476
G2 X139.333 Y61.588 I0 J-0.476
G1 X139.142 Y61.588
G2 X139.142 Y62.54 I0 J0.476
G2 X139.142 Y61.588 I0 J-0.476
G1 X138.952 Y61.588
G2 X138.952 Y62.54 I0 J0.476
G2 X138.952 Y61.588 I0 J-0.476
G1 X138.761 Y61.588
G2 X138.761 Y62.54 I0 J0.476
G2 X138.761 Y61.588 I-0 J-0.476
G1 X138.571 Y61.588
G2 X138.571 Y62.54 I0 J0.476
G2 X138.571 Y61.588 I0 J-0.476
G1 X138.38 Y61.588
G2 X138.38 Y62.54 I0 J0.476
G2 X138.38 Y61.588 I0 J-0.476
G1 X138.19 Y61.588
G2 X138.19 Y62.54 I0 J0.476
G2 X138.19 Y61.588 I0 J-0.476
G1 X137.999 Y61.588
G2 X137.999 Y62.54 I0 J0.476
G2 X137.999 Y61.588 I0 J-0.476
G1 X137.809 Y61.588
G2 X137.809 Y62.54 I0 J0.476
G2 X137.809 Y61.588 I-0 J-0.476
G1 X137.618 Y61.588
G2 X137.618 Y62.54 I0 J0.476
G2 X137.618 Y61.588 I0 J-0.476
G1 X137.428 Y61.588
G2 X137.428 Y62.54 I0 J0.476
G2 X137.428 Y61.588 I0 J-0.476
G1 X137.237 Y61.588
G2 X137.237 Y62.54 I0 J0.476
G2 X137.237 Y61.588 I0 J-0.476
G1 X137.047 Y61.588
G2 X137.047 Y62.54 I0 J0.476
G2 X137.047 Y61.588 I0 J-0.476
G1 X136.856 Y61.588
G2 X136.856 Y62.54 I0 J0.476
G2 X136.856 Y61.588 I-0 J-0.476
G1 X136.666 Y61.588
G2 X136.666 Y62.54 I0 J0.476
G2 X136.666 Y61.588 I0 J-0.476
G1 X136.475 Y61.588
G2 X136.475 Y62.54 I0 J0.476
G2 X136.475 Y61.588 I0 J-0.476
G1 X136.285 Y61.588
G2 X136.285 Y62.54 I0 J0.476
G2 X136.285 Y61.588 I0 J-0.476
G1 X136.094 Y61.588
G2 X136.094 Y62.54 I0 J0.476
G2 X136.094 Y61.588 I0 J-0.476
G1 X135.904 Y61.588
G2 X135.904 Y62.54 I0 J0.476
G2 X135.904 Y61.588 I-0 J-0.476
G1 X135.713 Y61.588
G2 X135.713 Y62.54 I0 J0.476
G2 X135.713 Y61.588 I0 J-0.476
G1 X135.523 Y61.588
G2 X135.523 Y62.54 I0 J0.476
G2 X135.523 Y61.588 I0 J-0.476
G1 X135.332 Y61.588
G2 X135.332 Y62.54 I0 J0.476
G2 X135.332 Y61.588 I-0 J-0.476
G1 X135.142 Y61.588
G2 X135.142 Y62.54 I0 J0.476
G2 X135.142 Y61.588 I0 J-0.476
G1 X134.951 Y61.588
G2 X134.951 Y62.54 I0 J0.476
G2 X134.951 Y61.588 I0 J-0.476
G1 X134.761 Y61.588
G2 X134.761 Y62.54 I0 J0.476
G2 X134.761 Y61.588 I-0 J-0.476
G1 X134.57 Y61.588
G2 X134.57 Y62.54 I0 J0.476
G2 X134.57 Y61.588 I0 J-0.476
G1 X134.38 Y61.588
G2 X134.38 Y62.54 I0 J0.476
G2 X134.38 Y61.588 I0 J-0.476
G1 X134.189 Y61.588
G2 X134.189 Y62.54 I0 J0.476
G2 X134.189 Y61.588 I0 J-0.476
G1 X133.999 Y61.588
G2 X133.999 Y62.54 I0 J0.476
G2 X133.999 Y61.588 I-0 J-0.476
G1 X133.808 Y61.588
G2 X133.808 Y62.54 I0 J0.476
G2 X133.808 Y61.588 I0 J-0.476
G1 X133.618 Y61.588
G2 X133.618 Y62.54 I0 J0.476
G2 X133.618 Y61.588 I0 J-0.476
G1 X133.427 Y61.588
G2 X133.427 Y62.54 I0 J0.476
G2 X133.427 Y61.588 I0 J-0.476
G1 X133.237 Y61.588
G2 X133.237 Y62.54 I0 J0.476
G2 X133.237 Y61.588 I0 J-0.476
G1 X133.046 Y61.588
G2 X133.046 Y62.54 I0 J0.476
G2 X133.046 Y61.588 I-0 J-0.476
G1 X132.856 Y61.588
G2 X132.856 Y62.54 I0 J0.476
G2 X132.856 Y61.588 I0 J-0.476
G1 X132.665 Y61.588
G2 X132.665 Y62.54 I0 J0.476
G2 X132.665 Y61.588 I0 J-0.476
G1 X132.475 Y61.588
G2 X132.475 Y62.54 I0 J0.476
G2 X132.475 Y61.588 I-0 J-0.476
G1 X132.284 Y61.588
G2 X132.284 Y62.54 I0 J0.476
G2 X132.284 Y61.588 I0 J-0.476
G1 X132.094 Y61.588
G2 X132.094 Y62.54 I0 J0.476
G2 X132.094 Y61.588 I-0 J-0.476
G1 X131.903 Y61.588
G2 X131.903 Y62.54 I0 J0.476
G2 X131.903 Y61.588 I0 J-0.476
G1 X131.713 Y61.588
G2 X131.713 Y62.54 I0 J0.476
G2 X131.713 Y61.588 I-0 J-0.476
G1 X131.522 Y61.588
G2 X131.522 Y62.54 I0 J0.476
G2 X131.522 Y61.588 I0 J-0.476
G1 X131.332 Y61.588
G2 X131.332 Y62.54 I0 J0.476
G2 X131.332 Y61.588 I-0 J-0.476
G1 X131.141 Y61.588
G2 X131.141 Y62.54 I0 J0.476
G2 X131.141 Y61.588 I0 J-0.476
G1 X130.951 Y61.588
G2 X130.951 Y62.54 I0 J0.476
G2 X130.951 Y61.588 I0 J-0.476
G1 X130.76 Y61.588
G2 X130.76 Y62.54 I0 J0.476
G2 X130.76 Y61.588 I0 J-0.476
G1 X130.57 Y61.588
G2 X130.57 Y62.54 I0 J0.476
G2 X130.57 Y61.588 I0 J-0.476
G1 X130.379 Y61.588
G2 X130.379 Y62.54 I0 J0.476
G2 X130.379 Y61.588 I-0 J-0.476
G1 X130.189 Y61.588
G2 X130.189 Y62.54 I0 J0.476
G2 X130.189 Y61.588 I0 J-0.476
G1 X129.998 Y61.588
G2 X129.998 Y62.54 I0 J0.476
G2 X129.998 Y61.588 I-0 J-0.476
G1 X129.808 Y61.588
G2 X129.808 Y62.54 I0 J0.476
G2 X129.808 Y61.588 I0 J-0.476
G1 X129.617 Y61.588
G2 X129.617 Y62.54 I0 J0.476
G2 X129.617 Y61.588 I-0 J-0.476
G1 X129.427 Y61.588
G2 X129.427 Y62.54 I0 J0.476
G2 X129.427 Y61.588 I0 J-0.476
G1 X129.236 Y61.588
G2 X129.236 Y62.54 I0 J0.476
G2 X129.236 Y61.588 I-0 J-0.476
G1 X129.046 Y61.588
G2 X129.046 Y62.54 I0 J0.476
G2 X129.046 Y61.588 I0 J-0.476
G1 X128.855 Y61.588
G2 X128.855 Y62.54 I0 J0.476
G2 X128.855 Y61.588 I-0 J-0.476
G1 X128.665 Y61.588
G2 X128.665 Y62.54 I0 J0.476
G2 X128.665 Y61.588 I0 J-0.476
G1 X128.474 Y61.588
G2 X128.474 Y62.54 I0 J0.476
G2 X128.474 Y61.588 I-0 J-0.476
G1 X128.284 Y61.588
G2 X128.284 Y62.54 I0 J0.476
G2 X128.284 Y61.588 I0 J-0.476
G1 X128.093 Y61.588
G2 X128.093 Y62.54 I0 J0.476
G2 X128.093 Y61.588 I0 J-0.476
G1 X127.903 Y61.588
G2 X127.903 Y62.54 I0 J0.476
G2 X127.903 Y61.588 I0 J-0.476
G1 X127.712 Y61.588
G2 X127.712 Y62.54 I0 J0.476
G2 X127.712 Y61.588 I0 J-0.476
G1 X127.522 Y61.588
G2 X127.522 Y62.54 I0 J0.476
G2 X127.522 Y61.588 I-0 J-0.476
G1 X127.331 Y61.588
G2 X127.331 Y62.54 I0 J0.476
G2 X127.331 Y61.588 I0 J-0.476
G1 X127.141 Y61.588
G2 X127.141 Y62.54 I0 J0.476
G2 X127.141 Y61.588 I-0 J-0.476
G1 X126.95 Y61.588
G2 X126.95 Y62.54 I0 J0.476
G2 X126.95 Y61.588 I0 J-0.476
G1 X126.76 Y61.588
G2 X126.76 Y62.54 I0 J0.476
G2 X126.76 Y61.588 I-0 J-0.476
G1 X126.569 Y61.588
G2 X126.569 Y62.54 I0 J0.476
G2 X126.569 Y61.588 I0 J-0.476
G1 X126.379 Y61.588
G2 X126.379 Y62.54 I0 J0.476
G2 X126.379 Y61.588 I0 J-0.476
G1 X126.188 Y61.588
G2 X126.188 Y62.54 I0 J0.476
G2 X126.188 Y61.588 I-0 J-0.476
G1 X125.998 Y61.588
G2 X125.998 Y62.54 I0 J0.476
G2 X125.998 Y61.588 I-0 J-0.476
G1 X125.807 Y61.588
G2 X125.807 Y62.54 I0 J0.476
G2 X125.807 Y61.588 I0 J-0.476
G1 X125.617 Y61.588
G2 X125.617 Y62.54 I0 J0.476
G2 X125.617 Y61.588 I0 J-0.476
G1 X125.426 Y61.588
G2 X125.426 Y62.54 I0 J0.476
G2 X125.426 Y61.588 I0 J-0.476
G1 X125.236 Y61.588
G2 X125.236 Y62.54 I0 J0.476
G2 X125.236 Y61.588 I-0 J-0.476
G1 X125.045 Y61.588
G2 X125.045 Y62.54 I0 J0.476
G2 X125.045 Y61.588 I-0 J-0.476
G1 X124.855 Y61.588
G2 X124.855 Y62.54 I0 J0.476
G2 X124.855 Y61.588 I-0 J-0.476
G1 X124.664 Y61.588
G2 X124.664 Y62.54 I0 J0.476
G2 X124.664 Y61.588 I0 J-0.476
G1 X124.474 Y61.588
G2 X124.474 Y62.54 I0 J0.476
G2 X124.474 Y61.588 I-0 J-0.476
G1 X124.283 Y61.588
G2 X124.283 Y62.54 I0 J0.476
G2 X124.283 Y61.588 I0 J-0.476
G1 X124.093 Y61.588
G2 X124.093 Y62.54 I0 J0.476
G2 X124.093 Y61.588 I0 J-0.476
G1 X123.902 Y61.588
G2 X123.902 Y62.54 I0 J0.476
G2 X123.902 Y61.588 I-0 J-0.476
G1 X123.712 Y61.588
G2 X123.712 Y62.54 I0 J0.476
G2 X123.712 Y61.588 I-0 J-0.476
G1 X123.521 Y61.588
G2 X123.521 Y62.54 I0 J0.476
G2 X123.521 Y61.588 I-0 J-0.476
G1 X123.331 Y61.588
G2 X123.331 Y62.54 I0 J0.476
G2 X123.331 Y61.588 I-0 J-0.476
G1 X123.14 Y61.588
G2 X123.14 Y62.54 I0 J0.476
G2 X123.14 Y61.588 I0 J-0.476
G1 X122.95 Y61.588
G2 X122.95 Y62.54 I0 J0.476
G2 X122.95 Y61.588 I-0 J-0.476
G1 X122.759 Y61.588
G2 X122.759 Y62.54 I0 J0.476
G2 X122.759 Y61.588 I0 J-0.476
G1 X122.569 Y61.588
G2 X122.569 Y62.54 I0 J0.476
G2 X122.569 Y61.588 I0 J-0.476
G1 X122.378 Y61.588
G2 X122.378 Y62.54 I0 J0.476
G2 X122.378 Y61.588 I-0 J-0.476
G1 X122.188 Y61.588
G2 X122.188 Y62.54 I0 J0.476
G2 X122.188 Y61.588 I-0 J-0.476
G1 X121.997 Y61.588
G2 X121.997 Y62.54 I0 J0.476
G2 X121.997 Y61.588 I-0 J-0.476
G1 X121.807 Y61.588
G2 X121.807 Y62.54 I0 J0.476
G2 X121.807 Y61.588 I0 J-0.476
G1 X121.616 Y61.588
G2 X121.616 Y62.54 I0 J0.476
G2 X121.616 Y61.588 I0 J-0.476
G1 X121.426 Y61.588
G2 X121.426 Y62.54 I0 J0.476
G2 X121.426 Y61.588 I-0 J-0.476
G1 X121.235 Y61.588
G2 X121.235 Y62.54 I0 J0.476
G2 X121.235 Y61.588 I-0 J-0.476
G1 X121.045 Y61.588
G2 X121.045 Y62.54 I0 J0.476
G2 X121.045 Y61.588 I-0 J-0.476
G1 X120.854 Y61.588
G2 X120.854 Y62.54 I0 J0.476
G2 X120.854 Y61.588 I-0 J-0.476
G1 X120.664 Y61.588
G2 X120.664 Y62.54 I0 J0.476
G2 X120.664 Y61.588 I0 J-0.476
G1 X120.473 Y61.588
G2 X120.473 Y62.54 I0 J0.476
G2 X120.473 Y61.588 I0 J-0.476
G1 X120.283 Y61.588
G2 X120.283 Y62.54 I0 J0.476
G2 X120.283 Y61.588 I-0 J-0.476
G1 X120.092 Y61.588
G2 X120.092 Y62.54 I0 J0.476
G2 X120.092 Y61.588 I-0 J-0.476
G1 X119.902 Y61.588
G2 X119.902 Y62.54 I0 J0.476
G2 X119.902 Y61.588 I-0 J-0.476
G1 X119.711 Y61.588
G2 X119.711 Y62.54 I0 J0.476
G2 X119.711 Y61.588 I-0 J-0.476
G1 X119.521 Y61.588
G2 X119.521 Y62.54 I0 J0.476
G2 X119.521 Y61.588 I0 J-0.476
G1 X119.33 Y61.588
G2 X119.33 Y62.54 I0 J0.476
G2 X119.33 Y61.588 I-0 J-0.476
G1 X119.14 Y61.588
G2 X119.14 Y62.54 I0 J0.476
G2 X119.14 Y61.588 I0 J-0.476
G1 X118.949 Y61.588
G2 X118.949 Y62.54 I0 J0.476
G2 X118.949 Y61.588 I-0 J-0.476
G1 X118.759 Y61.588
G2 X118.759 Y62.54 I0 J0.476
G2 X118.759 Y61.588 I-0 J-0.476
G1 X118.568 Y61.588
G2 X118.568 Y62.54 I0 J0.476
G2 X118.568 Y61.588 I0 J-0.476
G1 X118.378 Y61.588
G2 X118.378 Y62.54 I0 J0.476
G2 X118.378 Y61.588 I0 J-0.476
G1 X118.187 Y61.588
G2 X118.187 Y62.54 I0 J0.476
G2 X118.187 Y61.588 I-0 J-0.476
G1 X117.997 Y61.588
G2 X117.997 Y62.54 I0 J0.476
G2 X117.997 Y61.588 I-0 J-0.476
G1 X117.806 Y61.588
G2 X117.806 Y62.54 I0 J0.476
G2 X117.806 Y61.588 I-0 J-0.476
G1 X117.616 Y61.588
G2 X117.616 Y62.54 I0 J0.476
G2 X117.616 Y61.588 I-0 J-0.476
G1 X117.425 Y61.588
G2 X117.425 Y62.54 I0 J0.476
G2 X117.425 Y61.588 I-0 J-0.476
G1 X117.235 Y61.588
G2 X117.235 Y62.54 I0 J0.476
G2 X117.235 Y61.588 I0 J-0.476
G1 X117.044 Y61.588
G2 X117.044 Y62.54 I0 J0.476
G2 X117.044 Y61.588 I0 J-0.476
G1 X116.854 Y61.588
G2 X116.854 Y62.54 I0 J0.476
G2 X116.854 Y61.588 I0 J-0.476
G1 X116.663 Y61.588
G2 X116.663 Y62.54 I0 J0.476
G2 X116.663 Y61.588 I0 J-0.476
G1 X116.473 Y61.588
G2 X116.473 Y62.54 I0 J0.476
G2 X116.473 Y61.588 I-0 J-0.476
G1 X116.282 Y61.588
G2 X116.282 Y62.54 I0 J0.476
G2 X116.282 Y61.588 I-0 J-0.476
G1 X116.092 Y61.588
G2 X116.092 Y62.54 I0 J0.476
G2 X116.092 Y61.588 I-0 J-0.476
G1 X115.901 Y61.588
G2 X115.901 Y62.54 I0 J0.476
G2 X115.901 Y61.588 I-0 J-0.476
G1 X115.711 Y61.588
G2 X115.711 Y62.54 I0 J0.476
G2 X115.711 Y61.588 I0 J-0.476
G1 X115.52 Y61.588
G2 X115.52 Y62.54 I0 J0.476
G2 X115.52 Y61.588 I0 J-0.476
G1 X115.33 Y61.588
G2 X115.33 Y62.54 I0 J0.476
G2 X115.33 Y61.588 I0 J-0.476
G1 X115.139 Y61.588
G2 X115.139 Y62.54 I0 J0.476
G2 X115.139 Y61.588 I-0 J-0.476
G1 X114.949 Y61.588
G2 X114.949 Y62.54 I0 J0.476
G2 X114.949 Y61.588 I0 J-0.476
G1 X114.758 Y61.588
G2 X114.758 Y62.54 I0 J0.476
G2 X114.758 Y61.588 I-0 J-0.476
G1 X114.568 Y61.588
G2 X114.568 Y62.54 I0 J0.476
G2 X114.568 Y61.588 I-0 J-0.476
G1 X114.377 Y61.588
G2 X114.377 Y62.54 I0 J0.476
G2 X114.377 Y61.588 I0 J-0.476
G1 X114.187 Y61.588
G2 X114.187 Y62.54 I0 J0.476
G2 X114.187 Y61.588 I0 J-0.476
G1 X113.996 Y61.588
G2 X113.996 Y62.54 I0 J0.476
G2 X113.996 Y61.588 I-0 J-0.476
G1 X113.806 Y61.588
G2 X113.806 Y62.54 I0 J0.476
G2 X113.806 Y61.588 I-0 J-0.476
G1 X113.615 Y61.588
G2 X113.615 Y62.54 I0 J0.476
G2 X113.615 Y61.588 I-0 J-0.476
G1 X113.425 Y61.588
G2 X113.425 Y62.54 I0 J0.476
G2 X113.425 Y61.588 I-0 J-0.476
G1 X113.234 Y61.588
G2 X113.234 Y62.54 I0 J0.476
G2 X113.234 Y61.588 I0 J-0.476
G1 X113.044 Y61.588
G2 X113.044 Y62.54 I0 J0.476
G2 X113.044 Y61.588 I-0 J-0.476
G1 X112.853 Y61.588
G2 X112.853 Y62.54 I0 J0.476
G2 X112.853 Y61.588 I0 J-0.476
G1 X112.663 Y61.588
G2 X112.663 Y62.54 I0 J0.476
G2 X112.663 Y61.588 I-0 J-0.476
G1 X112.472 Y61.588
G2 X112.472 Y62.54 I0 J0.476
G2 X112.472 Y61.588 I0 J-0.476
G1 X112.282 Y61.588
G2 X112.282 Y62.54 I0 J0.476
G2 X112.282 Y61.588 I-0 J-0.476
G1 X112.091 Y61.588
G2 X112.091 Y62.54 I0 J0.476
G2 X112.091 Y61.588 I0 J-0.476
G1 X111.901 Y61.588
G2 X111.901 Y62.54 I0 J0.476
G2 X111.901 Y61.588 I-0 J-0.476
G1 X111.71 Y61.588
G2 X111.71 Y62.54 I0 J0.476
G2 X111.71 Y61.588 I-0 J-0.476
G1 X111.52 Y61.588
G2 X111.52 Y62.54 I0 J0.476
G2 X111.52 Y61.588 I-0 J-0.476
G1 X111.329 Y61.588
G2 X111.329 Y62.54 I0 J0.476
G2 X111.329 Y61.588 I-0 J-0.476
G1 X111.139 Y61.588
G2 X111.139 Y62.54 I0 J0.476
G2 X111.139 Y61.588 I0 J-0.476
G1 X110.948 Y61.588
G2 X110.948 Y62.54 I0 J0.476
G2 X110.948 Y61.588 I-0 J-0.476
G1 X110.758 Y61.588
G2 X110.758 Y62.54 I0 J0.476
G2 X110.758 Y61.588 I0 J-0.476
G1 X110.567 Y61.588
G2 X110.567 Y62.54 I0 J0.476
G2 X110.567 Y61.588 I-0 J-0.476
G1 X110.377 Y61.588
G2 X110.377 Y62.54 I0 J0.476
G2 X110.377 Y61.588 I0 J-0.476
G1 X110.186 Y61.588
G2 X110.186 Y62.54 I0 J0.476
G2 X110.186 Y61.588 I-0 J-0.476
G1 X109.996 Y61.588
G2 X109.996 Y62.54 I0 J0.476
G2 X109.996 Y61.588 I0 J-0.476
G1 X109.805 Y61.588
G2 X109.805 Y62.54 I0 J0.476
G2 X109.805 Y61.588 I-0 J-0.476
G1 X109.615 Y61.588
G2 X109.615 Y62.54 I0 J0.476
G2 X109.615 Y61.588 I-0 J-0.476
G1 X109.424 Y61.588
G2 X109.424 Y62.54 I0 J0.476
G2 X109.424 Y61.588 I-0 J-0.476
G1 X109.234 Y61.588
G2 X109.234 Y62.54 I0 J0.476
G2 X109.234 Y61.588 I-0 J-0.476
G1 X109.043 Y61.588
G2 X109.043 Y62.54 I0 J0.476
G2 X109.043 Y61.588 I0 J-0.476
G1 X108.853 Y61.588
G2 X108.853 Y62.54 I0 J0.476
G2 X108.853 Y61.588 I-0 J-0.476
G1 X108.662 Y61.588
G2 X108.662 Y62.54 I0 J0.476
G2 X108.662 Y61.588 I0 J-0.476
G1 X108.472 Y61.588
G2 X108.472 Y62.54 I0 J0.476
G2 X108.472 Y61.588 I0 J-0.476
G1 X108.281 Y61.588
G2 X108.281 Y62.54 I0 J0.476
G2 X108.281 Y61.588 I-0 J-0.476
G1 X108.091 Y61.588
G2 X108.091 Y62.54 I0 J0.476
G2 X108.091 Y61.588 I-0 J-0.476
G1 X107.9 Y61.588
G2 X107.9 Y62.54 I0 J0.476
G2 X107.9 Y61.588 I-0 J-0.476
G1 X107.71 Y61.588
G2 X107.71 Y62.54 I0 J0.476
G2 X107.71 Y61.588 I-0 J-0.476
G1 X107.519 Y61.588
G2 X107.519 Y62.54 I0 J0.476
G2 X107.519 Y61.588 I0 J-0.476
G1 X107.329 Y61.588
G2 X107.329 Y62.54 I0 J0.476
G2 X107.329 Y61.588 I-0 J-0.476
G1 X107.138 Y61.588
G2 X107.138 Y62.54 I0 J0.476
G2 X107.138 Y61.588 I-0 J-0.476
G1 X106.948 Y61.588
G2 X106.948 Y62.54 I0 J0.476
G2 X106.948 Y61.588 I-0 J-0.476
G1 X106.757 Y61.588
G2 X106.757 Y62.54 I0 J0.476
G2 X106.757 Y61.588 I-0 J-0.476
G1 X106.567 Y61.588
G2 X106.567 Y62.54 I0 J0.476
G2 X106.567 Y61.588 I-0 J-0.476
G1 X106.376 Y61.588
G2 X106.376 Y62.54 I0 J0.476
G2 X106.376 Y61.588 I0 J-0.476
G1 X106.186 Y61.588
G2 X106.186 Y62.54 I0 J0.476
G2 X106.186 Y61.588 I-0 J-0.476
G1 X105.995 Y61.588
G2 X105.995 Y62.54 I0 J0.476
G2 X105.995 Y61.588 I-0 J-0.476
G1 X105.805 Y61.588
G2 X105.805 Y62.54 I0 J0.476
G2 X105.805 Y61.588 I-0 J-0.476
G1 X105.614 Y61.588
G2 X105.614 Y62.54 I0 J0.476
G2 X105.614 Y61.588 I-0 J-0.476
G1 X105.424 Y61.588
G2 X105.424 Y62.54 I0 J0.476
G2 X105.424 Y61.588 I-0 J-0.476
G1 X105.233 Y61.588
G2 X105.233 Y62.54 I0 J0.476
G2 X105.233 Y61.588 I0 J-0.476
G1 X105.043 Y61.588
G2 X105.043 Y62.54 I0 J0.476
G2 X105.043 Y61.588 I0 J-0.476
G1 X104.852 Y61.588
G2 X104.852 Y62.54 I0 J0.476
G2 X104.852 Y61.588 I0 J-0.476
G1 X104.662 Y61.588
G2 X104.662 Y62.54 I0 J0.476
G2 X104.662 Y61.588 I0 J-0.476
G1 X104.471 Y61.588
G2 X104.471 Y62.54 I0 J0.476
G2 X104.471 Y61.588 I-0 J-0.476
G1 X104.281 Y61.588
G2 X104.281 Y62.54 I0 J0.476
G2 X104.281 Y61.588 I-0 J-0.476
G1 X104.09 Y61.588
G2 X104.09 Y62.54 I0 J0.476
G2 X104.09 Y61.588 I-0 J-0.476
G1 X103.9 Y61.588
G2 X103.9 Y62.54 I0 J0.476
G2 X103.9 Y61.588 I-0 J-0.476
G1 X103.709 Y61.588
G2 X103.709 Y62.54 I0 J0.476
G2 X103.709 Y61.588 I0 J-0.476
G1 X103.519 Y61.588
G2 X103.519 Y62.54 I0 J0.476
G2 X103.519 Y61.588 I0 J-0.476
G1 X103.328 Y61.588
G2 X103.328 Y62.54 I0 J0.476
G2 X103.328 Y61.588 I0 J-0.476
G1 X103.138 Y61.588
G2 X103.138 Y62.54 I0 J0.476
G2 X103.138 Y61.588 I-0 J-0.476
G1 X102.947 Y61.588
G2 X102.947 Y62.54 I0 J0.476
G2 X102.947 Y61.588 I0 J-0.476
G1 X102.757 Y61.588
G2 X102.757 Y62.54 I0 J0.476
G2 X102.757 Y61.588 I-0 J-0.476
G1 X102.566 Y61.588
G2 X102.566 Y62.54 I0 J0.476
G2 X102.566 Y61.588 I-0 J-0.476
G1 X102.376 Y61.588
G2 X102.376 Y62.54 I0 J0.476
